(.../EAGLE-7.7.0/ulp/gcode/pcb-gcode.ulp)
(Copyright 2005 - 2012 by John Johnson)
(See readme.txt for licensing terms.)
(This file generated from the board:)
(.../Lixie-hardware/PCB/lixie_digit.brd)
(Current profile is .../ulp/gcode/profiles/generic.pp  )
(This file generated 20.01.2017 11:14)
(Settings from pcb-machine.h)
(spindle on time = 3.0000)
(  Tool Size)
(0.1778 )
(spindle speed = 30000.0000)
(tool change at 0.0000 0.0000 25.4000 )
(feed rate xy = F508.00 )
(feed rate z  = F254.00 )
(Z Axis Settings)
(  High     Up        Down     Drill)
(12.7000 	2.5400 	-0.1778 	-0.8128 )
(Settings from pcb-defaults.h)
(isolate min = 0.0254)
(isolate max = 0.5080)
(isolate step = 0.1270)
(Generated top outlines, top drill, bottom outlines, bottom drill, )
(Unit of measure: mm)
(Metric Mode)
G21
(Absolute Coordinates)
G90
S30000
G00 Z12.7000 
G00 X0.0000 Y0.0000 
M03
G04 P3.000000
G00 Z2.5400 
G00 X-0.4774 Y0.5555 
G01 Z-0.1778 F254.00 
G01 X-0.5555 Y0.4774 F508.00 
G01 X-0.6510 Y0.4223 
G01 X-0.7576 Y0.3937 
G01 X-61.5424 Y0.3937 
G01 X-61.6490 Y0.4223 
G01 X-61.7445 Y0.4774 
G01 X-61.8226 Y0.5555 
G01 X-61.8777 Y0.6510 
G01 X-61.9063 Y0.7576 
G01 X-61.9063 Y14.4908 
G01 X-61.8990 Y14.5182 
G01 X-61.8777 Y14.5974 
G01 X-61.8226 Y14.6930 
G01 X-61.7445 Y14.7710 
G01 X-61.6490 Y14.8262 
G01 X-61.5424 Y14.8547 
G01 X-61.4320 Y14.8547 
G01 X-61.4047 Y14.8474 
G01 X-61.3855 Y14.8423 
G01 X-61.4233 Y14.8942 
G01 X-61.5004 Y15.0456 
G01 X-61.5529 Y15.2072 
G01 X-61.5795 Y15.3750 
G01 X-61.5795 Y15.5450 
G01 X-61.5529 Y15.7128 
G01 X-61.5004 Y15.8744 
G01 X-61.4233 Y16.0258 
G01 X-61.3234 Y16.1632 
G01 X-61.2032 Y16.2834 
G01 X-61.0658 Y16.3833 
G01 X-60.9144 Y16.4604 
G01 X-60.7528 Y16.5129 
G01 X-60.5850 Y16.5395 
G01 X-60.4150 Y16.5395 
G01 X-60.2472 Y16.5129 
G01 X-60.0917 Y16.4624 
G01 X-60.0974 Y16.4698 
G01 X-60.1123 Y16.5056 
G01 X-60.1298 Y16.5401 
G01 X-60.1333 Y16.5564 
G01 X-60.1397 Y16.5718 
G01 X-60.1447 Y16.6102 
G01 X-60.1528 Y16.6481 
G01 X-60.1519 Y16.6647 
G01 X-60.1541 Y16.6812 
G01 X-60.1490 Y16.7196 
G01 X-60.1470 Y16.7583 
G01 X-60.1419 Y16.7741 
G01 X-60.1397 Y16.7906 
G01 X-60.1249 Y16.8264 
G01 X-60.1129 Y16.8632 
G01 X-60.1038 Y16.8772 
G01 X-60.0975 Y16.8925 
G01 X-60.0739 Y16.9233 
G01 X-60.0528 Y16.9557 
G01 X-60.0404 Y16.9669 
G01 X-60.0303 Y16.9801 
G01 X-59.9996 Y17.0037 
G01 X-59.9708 Y17.0296 
G01 X-59.9559 Y17.0371 
G01 X-59.9427 Y17.0473 
G01 X-59.9167 Y17.0581 
G01 X-59.7802 Y17.1572 
G01 X-59.6572 Y17.2802 
G01 X-59.5550 Y17.4209 
G01 X-59.4760 Y17.5759 
G01 X-59.4744 Y17.5809 
G01 X-59.5020 Y17.5809 
G01 X-59.5767 Y17.4342 
G01 X-59.6766 Y17.2968 
G01 X-59.7968 Y17.1766 
G01 X-59.9342 Y17.0767 
G01 X-60.0856 Y16.9996 
G01 X-60.2472 Y16.9471 
G01 X-60.4150 Y16.9205 
G01 X-60.5850 Y16.9205 
G01 X-60.7528 Y16.9471 
G01 X-60.9144 Y16.9996 
G01 X-61.0658 Y17.0767 
G01 X-61.2032 Y17.1766 
G01 X-61.3234 Y17.2968 
G01 X-61.4233 Y17.4342 
G01 X-61.5004 Y17.5856 
G01 X-61.5529 Y17.7472 
G01 X-61.5795 Y17.9150 
G01 X-61.5795 Y18.0850 
G01 X-61.5529 Y18.2528 
G01 X-61.5004 Y18.4144 
G01 X-61.4233 Y18.5658 
G01 X-61.3234 Y18.7032 
G01 X-61.2032 Y18.8234 
G01 X-61.0658 Y18.9233 
G01 X-60.9144 Y19.0004 
G01 X-60.7528 Y19.0529 
G01 X-60.5850 Y19.0795 
G01 X-60.4150 Y19.0795 
G01 X-60.2472 Y19.0529 
G01 X-60.0856 Y19.0004 
G01 X-59.9342 Y18.9233 
G01 X-59.7968 Y18.8234 
G01 X-59.6766 Y18.7032 
G01 X-59.5767 Y18.5658 
G01 X-59.5020 Y18.4191 
G01 X-59.4744 Y18.4191 
G01 X-59.4760 Y18.4241 
G01 X-59.5550 Y18.5791 
G01 X-59.6572 Y18.7198 
G01 X-59.7802 Y18.8428 
G01 X-59.9167 Y18.9419 
G01 X-59.9427 Y18.9527 
G01 X-59.9559 Y18.9628 
G01 X-59.9708 Y18.9704 
G01 X-59.9996 Y18.9963 
G01 X-60.0303 Y19.0199 
G01 X-60.0404 Y19.0331 
G01 X-60.0528 Y19.0442 
G01 X-60.0739 Y19.0767 
G01 X-60.0975 Y19.1074 
G01 X-60.1038 Y19.1228 
G01 X-60.1129 Y19.1368 
G01 X-60.1249 Y19.1736 
G01 X-60.1397 Y19.2094 
G01 X-60.1419 Y19.2259 
G01 X-60.1470 Y19.2417 
G01 X-60.1490 Y19.2804 
G01 X-60.1541 Y19.3188 
G01 X-60.1519 Y19.3353 
G01 X-60.1528 Y19.3519 
G01 X-60.1447 Y19.3898 
G01 X-60.1397 Y19.4282 
G01 X-60.1333 Y19.4436 
G01 X-60.1298 Y19.4599 
G01 X-60.1123 Y19.4944 
G01 X-60.0974 Y19.5302 
G01 X-60.0917 Y19.5376 
G01 X-60.2472 Y19.4871 
G01 X-60.4150 Y19.4605 
G01 X-60.5850 Y19.4605 
G01 X-60.7528 Y19.4871 
G01 X-60.9144 Y19.5396 
G01 X-61.0658 Y19.6167 
G01 X-61.2032 Y19.7166 
G01 X-61.3234 Y19.8368 
G01 X-61.4233 Y19.9742 
G01 X-61.5004 Y20.1256 
G01 X-61.5529 Y20.2872 
G01 X-61.5795 Y20.4550 
G01 X-61.5795 Y20.6250 
G01 X-61.5529 Y20.7928 
G01 X-61.5004 Y20.9544 
G01 X-61.4233 Y21.1058 
G01 X-61.3855 Y21.1577 
G01 X-61.4022 Y21.1532 
G01 X-61.4320 Y21.1453 
G01 X-61.5424 Y21.1453 
G01 X-61.6490 Y21.1738 
G01 X-61.7445 Y21.2290 
G01 X-61.8213 Y21.3058 
G01 X-61.8777 Y21.4026 
G01 X-61.8983 Y21.4794 
G01 X-61.9063 Y21.5092 
G01 X-61.9063 Y37.2424 
G01 X-61.8777 Y37.3490 
G01 X-61.8226 Y37.4445 
G01 X-61.7445 Y37.5226 
G01 X-61.6490 Y37.5777 
G01 X-61.5424 Y37.6063 
G01 X-0.7576 Y37.6063 
G01 X-0.6510 Y37.5777 
G01 X-0.5555 Y37.5226 
G01 X-0.4774 Y37.4445 
G01 X-0.4223 Y37.3490 
G01 X-0.3937 Y37.2424 
G01 X-0.3937 Y21.3092 
G01 X-0.3995 Y21.2876 
G01 X-0.4223 Y21.2026 
G01 X-0.4774 Y21.1070 
G01 X-0.5555 Y21.0290 
G01 X-0.6510 Y20.9738 
G01 X-0.7576 Y20.9453 
G01 X-0.8680 Y20.9453 
G01 X-0.8895 Y20.9510 
G01 X-0.9746 Y20.9738 
G01 X-1.0241 Y21.0024 
G01 X-0.9996 Y20.9544 
G01 X-0.9471 Y20.7928 
G01 X-0.9205 Y20.6250 
G01 X-0.9205 Y20.4550 
G01 X-0.9471 Y20.2872 
G01 X-0.9996 Y20.1256 
G01 X-1.0767 Y19.9742 
G01 X-1.1766 Y19.8368 
G01 X-1.2968 Y19.7166 
G01 X-1.4342 Y19.6167 
G01 X-1.5856 Y19.5396 
G01 X-1.7472 Y19.4871 
G01 X-1.9150 Y19.4605 
G01 X-2.0850 Y19.4605 
G01 X-2.2528 Y19.4871 
G01 X-2.4083 Y19.5376 
G01 X-2.4026 Y19.5302 
G01 X-2.3877 Y19.4944 
G01 X-2.3702 Y19.4599 
G01 X-2.3667 Y19.4436 
G01 X-2.3603 Y19.4282 
G01 X-2.3553 Y19.3898 
G01 X-2.3472 Y19.3519 
G01 X-2.3481 Y19.3353 
G01 X-2.3459 Y19.3188 
G01 X-2.3510 Y19.2804 
G01 X-2.3530 Y19.2417 
G01 X-2.3581 Y19.2259 
G01 X-2.3603 Y19.2094 
G01 X-2.3751 Y19.1736 
G01 X-2.3871 Y19.1368 
G01 X-2.3962 Y19.1228 
G01 X-2.4025 Y19.1074 
G01 X-2.4261 Y19.0767 
G01 X-2.4472 Y19.0442 
G01 X-2.4596 Y19.0331 
G01 X-2.4697 Y19.0199 
G01 X-2.5004 Y18.9963 
G01 X-2.5292 Y18.9704 
G01 X-2.5440 Y18.9628 
G01 X-2.5572 Y18.9527 
G01 X-2.5833 Y18.9419 
G01 X-2.7198 Y18.8428 
G01 X-2.8428 Y18.7198 
G01 X-2.9450 Y18.5791 
G01 X-3.0240 Y18.4241 
G01 X-3.0256 Y18.4191 
G01 X-2.9980 Y18.4191 
G01 X-2.9233 Y18.5658 
G01 X-2.8234 Y18.7032 
G01 X-2.7032 Y18.8234 
G01 X-2.5658 Y18.9233 
G01 X-2.4144 Y19.0004 
G01 X-2.2528 Y19.0529 
G01 X-2.0850 Y19.0795 
G01 X-1.9150 Y19.0795 
G01 X-1.7472 Y19.0529 
G01 X-1.5856 Y19.0004 
G01 X-1.4342 Y18.9233 
G01 X-1.2968 Y18.8234 
G01 X-1.1766 Y18.7032 
G01 X-1.0767 Y18.5658 
G01 X-0.9996 Y18.4144 
G01 X-0.9471 Y18.2528 
G01 X-0.9205 Y18.0850 
G01 X-0.9205 Y17.9150 
G01 X-0.9471 Y17.7472 
G01 X-0.9996 Y17.5856 
G01 X-1.0767 Y17.4342 
G01 X-1.1766 Y17.2968 
G01 X-1.2968 Y17.1766 
G01 X-1.4342 Y17.0767 
G01 X-1.5856 Y16.9996 
G01 X-1.7472 Y16.9471 
G01 X-1.9150 Y16.9205 
G01 X-2.0850 Y16.9205 
G01 X-2.2528 Y16.9471 
G01 X-2.4144 Y16.9996 
G01 X-2.5658 Y17.0767 
G01 X-2.7032 Y17.1766 
G01 X-2.8234 Y17.2968 
G01 X-2.9233 Y17.4342 
G01 X-2.9980 Y17.5809 
G01 X-3.0256 Y17.5809 
G01 X-3.0240 Y17.5759 
G01 X-2.9450 Y17.4209 
G01 X-2.8428 Y17.2802 
G01 X-2.7198 Y17.1572 
G01 X-2.5833 Y17.0581 
G01 X-2.5572 Y17.0473 
G01 X-2.5440 Y17.0371 
G01 X-2.5292 Y17.0296 
G01 X-2.5004 Y17.0037 
G01 X-2.4697 Y16.9801 
G01 X-2.4596 Y16.9669 
G01 X-2.4472 Y16.9557 
G01 X-2.4261 Y16.9233 
G01 X-2.4025 Y16.8925 
G01 X-2.3962 Y16.8772 
G01 X-2.3871 Y16.8632 
G01 X-2.3751 Y16.8264 
G01 X-2.3603 Y16.7906 
G01 X-2.3581 Y16.7741 
G01 X-2.3530 Y16.7583 
G01 X-2.3510 Y16.7196 
G01 X-2.3459 Y16.6812 
G01 X-2.3481 Y16.6647 
G01 X-2.3472 Y16.6481 
G01 X-2.3553 Y16.6101 
G01 X-2.3603 Y16.5718 
G01 X-2.3667 Y16.5564 
G01 X-2.3702 Y16.5401 
G01 X-2.3877 Y16.5056 
G01 X-2.4026 Y16.4698 
G01 X-2.4083 Y16.4624 
G01 X-2.2528 Y16.5129 
G01 X-2.0850 Y16.5395 
G01 X-1.9150 Y16.5395 
G01 X-1.7472 Y16.5129 
G01 X-1.5856 Y16.4604 
G01 X-1.4342 Y16.3833 
G01 X-1.2968 Y16.2834 
G01 X-1.1766 Y16.1632 
G01 X-1.0767 Y16.0258 
G01 X-0.9996 Y15.8744 
G01 X-0.9471 Y15.7128 
G01 X-0.9205 Y15.5450 
G01 X-0.9205 Y15.3750 
G01 X-0.9471 Y15.2072 
G01 X-0.9996 Y15.0456 
G01 X-1.0241 Y14.9976 
G01 X-0.9746 Y15.0262 
G01 X-0.8915 Y15.0484 
G01 X-0.8680 Y15.0547 
G01 X-0.7576 Y15.0547 
G01 X-0.6510 Y15.0262 
G01 X-0.5576 Y14.9722 
G01 X-0.4774 Y14.8930 
G01 X-0.4223 Y14.7974 
G01 X-0.4000 Y14.7143 
G01 X-0.3937 Y14.6908 
G01 X-0.3937 Y0.7576 
G01 X-0.4223 Y0.6510 
G01 X-0.4774 Y0.5555 
G00 Z2.5400 
G00 X-5.8680 Y4.5809 
G01 Z-0.1778 F254.00 
G01 X-5.9040 Y4.5809 F508.00 
G01 X-6.3589 Y4.1260 
G01 X-6.3589 Y4.0900 
G01 X-5.8680 Y4.5809 
G00 Z2.5400 
G00 X-5.8680 Y5.4191 
G01 Z-0.1778 F254.00 
G01 X-6.3589 Y5.9100 F508.00 
G01 X-6.3589 Y5.8740 
G01 X-5.9040 Y5.4191 
G01 X-5.8680 Y5.4191 
G00 Z2.5400 
G00 X-7.1971 Y5.8740 
G01 Z-0.1778 F254.00 
G01 X-7.1971 Y5.9100 F508.00 
G01 X-7.6880 Y5.4191 
G01 X-7.6520 Y5.4191 
G01 X-7.1971 Y5.8740 
G00 Z2.5400 
G00 X-7.1971 Y4.1260 
G01 Z-0.1778 F254.00 
G01 X-7.6520 Y4.5809 F508.00 
G01 X-7.6880 Y4.5809 
G01 X-7.1971 Y4.0900 
G01 X-7.1971 Y4.1260 
G00 Z2.5400 
G00 X-15.5218 Y3.9877 
G01 Z-0.1778 F254.00 
G01 X-16.0123 Y4.4782 F508.00 
G01 X-16.6532 Y4.7437 
G01 X-17.3468 Y4.7437 
G01 X-17.9877 Y4.4782 
G01 X-18.4782 Y3.9877 
G01 X-18.7437 Y3.3468 
G01 X-18.7437 Y2.6532 
G01 X-18.4782 Y2.0123 
G01 X-17.9877 Y1.5218 
G01 X-17.3468 Y1.2563 
G01 X-16.6532 Y1.2563 
G01 X-16.0123 Y1.5218 
G01 X-15.5218 Y2.0123 
G01 X-15.2563 Y2.6532 
G01 X-15.2563 Y3.3468 
G01 X-15.5218 Y3.9877 
G00 Z2.5400 
G00 X-43.8218 Y3.9877 
G01 Z-0.1778 F254.00 
G01 X-44.3123 Y4.4782 F508.00 
G01 X-44.9532 Y4.7437 
G01 X-45.6468 Y4.7437 
G01 X-46.2877 Y4.4782 
G01 X-46.7782 Y3.9877 
G01 X-47.0437 Y3.3468 
G01 X-47.0437 Y2.6532 
G01 X-46.7782 Y2.0123 
G01 X-46.2877 Y1.5218 
G01 X-45.6468 Y1.2563 
G01 X-44.9532 Y1.2563 
G01 X-44.3123 Y1.5218 
G01 X-43.8218 Y2.0123 
G01 X-43.5563 Y2.6532 
G01 X-43.5563 Y3.3468 
G01 X-43.8218 Y3.9877 
G00 Z2.5400 
G00 X-44.3123 Y33.5218 
G01 Z-0.1778 F254.00 
G01 X-43.8218 Y34.0123 F508.00 
G01 X-43.5563 Y34.6532 
G01 X-43.5563 Y35.3468 
G01 X-43.8218 Y35.9877 
G01 X-44.3123 Y36.4782 
G01 X-44.9532 Y36.7437 
G01 X-45.6468 Y36.7437 
G01 X-46.2877 Y36.4782 
G01 X-46.7782 Y35.9877 
G01 X-47.0437 Y35.3468 
G01 X-47.0437 Y34.6532 
G01 X-46.7782 Y34.0123 
G01 X-46.2877 Y33.5218 
G01 X-45.6468 Y33.2563 
G01 X-44.9532 Y33.2563 
G01 X-44.3123 Y33.5218 
G00 Z2.5400 
G00 X-17.9877 Y33.5218 
G01 Z-0.1778 F254.00 
G01 X-17.3468 Y33.2563 F508.00 
G01 X-16.6532 Y33.2563 
G01 X-16.0123 Y33.5218 
G01 X-15.5218 Y34.0123 
G01 X-15.2563 Y34.6532 
G01 X-15.2563 Y35.3468 
G01 X-15.5218 Y35.9877 
G01 X-16.0123 Y36.4782 
G01 X-16.6532 Y36.7437 
G01 X-17.3468 Y36.7437 
G01 X-17.9877 Y36.4782 
G01 X-18.4782 Y35.9877 
G01 X-18.7437 Y35.3468 
G01 X-18.7437 Y34.6532 
G01 X-18.4782 Y34.0123 
G01 X-17.9877 Y33.5218 
G00 Z2.5400 
G00 X-0.3758 Y0.4775 
G01 Z-0.1778 F254.00 
G01 X-0.4775 Y0.3758 F508.00 
G01 X-0.6020 Y0.3039 
G01 X-0.7409 Y0.2667 
G01 X-61.5591 Y0.2667 
G01 X-61.6980 Y0.3039 
G01 X-61.8225 Y0.3758 
G01 X-61.9242 Y0.4775 
G01 X-61.9961 Y0.6020 
G01 X-62.0333 Y0.7409 
G01 X-62.0333 Y14.5075 
G01 X-62.0138 Y14.5804 
G01 X-61.9961 Y14.6464 
G01 X-61.9784 Y14.6770 
G01 X-61.9242 Y14.7709 
G01 X-61.8225 Y14.8726 
G01 X-61.7864 Y14.8935 
G01 X-61.6980 Y14.9445 
G01 X-61.6042 Y14.9696 
G01 X-61.6181 Y14.9969 
G01 X-61.6768 Y15.1775 
G01 X-61.7065 Y15.3650 
G01 X-61.7065 Y15.5550 
G01 X-61.6768 Y15.7425 
G01 X-61.6181 Y15.9231 
G01 X-61.5319 Y16.0923 
G01 X-61.4203 Y16.2460 
G01 X-61.2860 Y16.3803 
G01 X-61.1323 Y16.4919 
G01 X-60.9631 Y16.5781 
G01 X-60.7825 Y16.6368 
G01 X-60.5950 Y16.6665 
G01 X-60.4050 Y16.6665 
G01 X-60.2800 Y16.6467 
G01 X-60.2793 Y16.6597 
G01 X-60.2822 Y16.6812 
G01 X-60.2756 Y16.7312 
G01 X-60.2730 Y16.7816 
G01 X-60.2662 Y16.8022 
G01 X-60.2645 Y16.8158 
G01 X-60.4050 Y16.7935 
G01 X-60.5950 Y16.7935 
G01 X-60.7825 Y16.8232 
G01 X-60.9631 Y16.8819 
G01 X-61.1323 Y16.9681 
G01 X-61.2860 Y17.0797 
G01 X-61.4203 Y17.2140 
G01 X-61.5319 Y17.3677 
G01 X-61.6181 Y17.5369 
G01 X-61.6768 Y17.7175 
G01 X-61.7065 Y17.9050 
G01 X-61.7065 Y18.0950 
G01 X-61.6768 Y18.2825 
G01 X-61.6181 Y18.4631 
G01 X-61.5319 Y18.6323 
G01 X-61.4203 Y18.7860 
G01 X-61.2860 Y18.9203 
G01 X-61.1323 Y19.0319 
G01 X-60.9631 Y19.1181 
G01 X-60.7825 Y19.1768 
G01 X-60.5950 Y19.2065 
G01 X-60.4050 Y19.2065 
G01 X-60.2645 Y19.1842 
G01 X-60.2662 Y19.1977 
G01 X-60.2730 Y19.2184 
G01 X-60.2756 Y19.2688 
G01 X-60.2822 Y19.3188 
G01 X-60.2793 Y19.3403 
G01 X-60.2800 Y19.3533 
G01 X-60.4050 Y19.3335 
G01 X-60.5950 Y19.3335 
G01 X-60.7825 Y19.3632 
G01 X-60.9631 Y19.4219 
G01 X-61.1323 Y19.5081 
G01 X-61.2860 Y19.6197 
G01 X-61.4203 Y19.7540 
G01 X-61.5319 Y19.9077 
G01 X-61.6181 Y20.0769 
G01 X-61.6768 Y20.2575 
G01 X-61.7065 Y20.4450 
G01 X-61.7065 Y20.6350 
G01 X-61.6768 Y20.8225 
G01 X-61.6181 Y21.0031 
G01 X-61.6042 Y21.0304 
G01 X-61.6980 Y21.0555 
G01 X-61.7919 Y21.1097 
G01 X-61.8225 Y21.1274 
G01 X-61.9226 Y21.2275 
G01 X-61.9752 Y21.3175 
G01 X-61.9961 Y21.3536 
G01 X-62.0129 Y21.4165 
G01 X-62.0333 Y21.4925 
G01 X-62.0333 Y37.2591 
G01 X-61.9961 Y37.3980 
G01 X-61.9242 Y37.5225 
G01 X-61.8225 Y37.6242 
G01 X-61.6980 Y37.6961 
G01 X-61.5591 Y37.7333 
G01 X-0.7409 Y37.7333 
G01 X-0.6020 Y37.6961 
G01 X-0.4775 Y37.6242 
G01 X-0.3758 Y37.5225 
G01 X-0.3039 Y37.3980 
G01 X-0.2667 Y37.2591 
G01 X-0.2667 Y21.2925 
G01 X-0.3039 Y21.1536 
G01 X-0.3296 Y21.1090 
G01 X-0.3758 Y21.0291 
G01 X-0.4775 Y20.9274 
G01 X-0.6020 Y20.8555 
G01 X-0.7409 Y20.8183 
G01 X-0.8225 Y20.8183 
G01 X-0.7935 Y20.6350 
G01 X-0.7935 Y20.4450 
G01 X-0.8232 Y20.2575 
G01 X-0.8819 Y20.0769 
G01 X-0.9681 Y19.9077 
G01 X-1.0797 Y19.7540 
G01 X-1.2140 Y19.6197 
G01 X-1.3677 Y19.5081 
G01 X-1.5369 Y19.4219 
G01 X-1.7175 Y19.3632 
G01 X-1.9050 Y19.3335 
G01 X-2.0950 Y19.3335 
G01 X-2.2200 Y19.3533 
G01 X-2.2207 Y19.3403 
G01 X-2.2178 Y19.3188 
G01 X-2.2244 Y19.2688 
G01 X-2.2270 Y19.2184 
G01 X-2.2338 Y19.1977 
G01 X-2.2355 Y19.1842 
G01 X-2.0950 Y19.2065 
G01 X-1.9050 Y19.2065 
G01 X-1.7175 Y19.1768 
G01 X-1.5369 Y19.1181 
G01 X-1.3677 Y19.0319 
G01 X-1.2140 Y18.9203 
G01 X-1.0797 Y18.7860 
G01 X-0.9681 Y18.6323 
G01 X-0.8819 Y18.4631 
G01 X-0.8232 Y18.2825 
G01 X-0.7935 Y18.0950 
G01 X-0.7935 Y17.9050 
G01 X-0.8232 Y17.7175 
G01 X-0.8819 Y17.5369 
G01 X-0.9681 Y17.3677 
G01 X-1.0797 Y17.2140 
G01 X-1.2140 Y17.0797 
G01 X-1.3677 Y16.9681 
G01 X-1.5369 Y16.8819 
G01 X-1.7175 Y16.8232 
G01 X-1.9050 Y16.7935 
G01 X-2.0950 Y16.7935 
G01 X-2.2355 Y16.8158 
G01 X-2.2338 Y16.8022 
G01 X-2.2270 Y16.7816 
G01 X-2.2244 Y16.7312 
G01 X-2.2178 Y16.6812 
G01 X-2.2207 Y16.6597 
G01 X-2.2200 Y16.6467 
G01 X-2.0950 Y16.6665 
G01 X-1.9050 Y16.6665 
G01 X-1.7175 Y16.6368 
G01 X-1.5369 Y16.5781 
G01 X-1.3677 Y16.4919 
G01 X-1.2140 Y16.3803 
G01 X-1.0797 Y16.2460 
G01 X-0.9681 Y16.0923 
G01 X-0.8819 Y15.9231 
G01 X-0.8232 Y15.7425 
G01 X-0.7935 Y15.5550 
G01 X-0.7935 Y15.3650 
G01 X-0.8225 Y15.1817 
G01 X-0.7409 Y15.1817 
G01 X-0.6020 Y15.1445 
G01 X-0.5993 Y15.1429 
G01 X-0.4775 Y15.0726 
G01 X-0.3758 Y14.9709 
G01 X-0.3308 Y14.8930 
G01 X-0.3039 Y14.8464 
G01 X-0.2667 Y14.7075 
G01 X-0.2667 Y0.7409 
G01 X-0.3039 Y0.6020 
G01 X-0.3758 Y0.4775 
G00 Z2.5400 
G00 X-16.0842 Y1.6294 
G01 Z-0.1778 F254.00 
G01 X-15.6294 Y2.0842 F508.00 
G01 X-15.3833 Y2.6784 
G01 X-15.3833 Y3.3216 
G01 X-15.6294 Y3.9158 
G01 X-16.0842 Y4.3706 
G01 X-16.6784 Y4.6167 
G01 X-17.3216 Y4.6167 
G01 X-17.9158 Y4.3706 
G01 X-18.3706 Y3.9158 
G01 X-18.6167 Y3.3216 
G01 X-18.6167 Y2.6784 
G01 X-18.3706 Y2.0842 
G01 X-17.9158 Y1.6294 
G01 X-17.3216 Y1.3833 
G01 X-16.6784 Y1.3833 
G01 X-16.0842 Y1.6294 
G00 Z2.5400 
G00 X-44.3842 Y1.6294 
G01 Z-0.1778 F254.00 
G01 X-43.9294 Y2.0842 F508.00 
G01 X-43.6833 Y2.6784 
G01 X-43.6833 Y3.3216 
G01 X-43.9294 Y3.9158 
G01 X-44.3842 Y4.3706 
G01 X-44.9784 Y4.6167 
G01 X-45.6216 Y4.6167 
G01 X-46.2158 Y4.3706 
G01 X-46.6706 Y3.9158 
G01 X-46.9167 Y3.3216 
G01 X-46.9167 Y2.6784 
G01 X-46.6706 Y2.0842 
G01 X-46.2158 Y1.6294 
G01 X-45.6216 Y1.3833 
G01 X-44.9784 Y1.3833 
G01 X-44.3842 Y1.6294 
G00 Z2.5400 
G00 X-44.3842 Y33.6294 
G01 Z-0.1778 F254.00 
G01 X-43.9294 Y34.0842 F508.00 
G01 X-43.6833 Y34.6784 
G01 X-43.6833 Y35.3216 
G01 X-43.9294 Y35.9158 
G01 X-44.3842 Y36.3706 
G01 X-44.9784 Y36.6167 
G01 X-45.6216 Y36.6167 
G01 X-46.2158 Y36.3706 
G01 X-46.6706 Y35.9158 
G01 X-46.9167 Y35.3216 
G01 X-46.9167 Y34.6784 
G01 X-46.6706 Y34.0842 
G01 X-46.2158 Y33.6294 
G01 X-45.6216 Y33.3833 
G01 X-44.9784 Y33.3833 
G01 X-44.3842 Y33.6294 
G00 Z2.5400 
G00 X-17.9158 Y33.6294 
G01 Z-0.1778 F254.00 
G01 X-17.3216 Y33.3833 F508.00 
G01 X-16.6784 Y33.3833 
G01 X-16.0842 Y33.6294 
G01 X-15.6294 Y34.0842 
G01 X-15.3833 Y34.6784 
G01 X-15.3833 Y35.3216 
G01 X-15.6294 Y35.9158 
G01 X-16.0842 Y36.3706 
G01 X-16.6784 Y36.6167 
G01 X-17.3216 Y36.6167 
G01 X-17.9158 Y36.3706 
G01 X-18.3706 Y35.9158 
G01 X-18.6167 Y35.3216 
G01 X-18.6167 Y34.6784 
G01 X-18.3706 Y34.0842 
G01 X-17.9158 Y33.6294 
G00 Z2.5400 
G00 X-0.2900 Y0.3837 
G01 Z-0.1778 F254.00 
G01 X-0.3837 Y0.2900 F508.00 
G01 X-0.4940 Y0.2163 
G01 X-0.6165 Y0.1656 
G01 X-0.7465 Y0.1397 
G01 X-61.5535 Y0.1397 
G01 X-61.6835 Y0.1656 
G01 X-61.8060 Y0.2163 
G01 X-61.9163 Y0.2900 
G01 X-62.0100 Y0.3837 
G01 X-62.0837 Y0.4940 
G01 X-62.1344 Y0.6165 
G01 X-62.1603 Y0.7465 
G01 X-62.1603 Y14.5019 
G01 X-62.1503 Y14.5522 
G01 X-62.1344 Y14.6320 
G01 X-62.0837 Y14.7545 
G01 X-62.0481 Y14.8078 
G01 X-62.0100 Y14.8647 
G01 X-61.9163 Y14.9585 
G01 X-61.8060 Y15.0321 
G01 X-61.7865 Y15.0402 
G01 X-61.7682 Y15.0478 
G01 X-61.8007 Y15.1477 
G01 X-61.8335 Y15.3550 
G01 X-61.8335 Y15.5649 
G01 X-61.8007 Y15.7723 
G01 X-61.7358 Y15.9719 
G01 X-61.6405 Y16.1589 
G01 X-61.5171 Y16.3287 
G01 X-61.3687 Y16.4771 
G01 X-61.1989 Y16.6005 
G01 X-61.0119 Y16.6958 
G01 X-60.9066 Y16.7300 
G01 X-61.0119 Y16.7642 
G01 X-61.1989 Y16.8595 
G01 X-61.3687 Y16.9829 
G01 X-61.5171 Y17.1313 
G01 X-61.6405 Y17.3011 
G01 X-61.7358 Y17.4881 
G01 X-61.8007 Y17.6877 
G01 X-61.8335 Y17.8950 
G01 X-61.8335 Y18.1049 
G01 X-61.8007 Y18.3123 
G01 X-61.7358 Y18.5119 
G01 X-61.6405 Y18.6989 
G01 X-61.5171 Y18.8687 
G01 X-61.3687 Y19.0171 
G01 X-61.1989 Y19.1405 
G01 X-61.0119 Y19.2358 
G01 X-60.9066 Y19.2700 
G01 X-61.0119 Y19.3042 
G01 X-61.1989 Y19.3995 
G01 X-61.3687 Y19.5229 
G01 X-61.5171 Y19.6713 
G01 X-61.6405 Y19.8411 
G01 X-61.7358 Y20.0281 
G01 X-61.8007 Y20.2277 
G01 X-61.8335 Y20.4350 
G01 X-61.8335 Y20.6450 
G01 X-61.8007 Y20.8523 
G01 X-61.7682 Y20.9522 
G01 X-61.7835 Y20.9586 
G01 X-61.8060 Y20.9679 
G01 X-61.9163 Y21.0415 
G01 X-62.0086 Y21.1338 
G01 X-62.0451 Y21.1878 
G01 X-62.0837 Y21.2455 
G01 X-62.1344 Y21.3680 
G01 X-62.1497 Y21.4449 
G01 X-62.1603 Y21.4981 
G01 X-62.1603 Y37.2535 
G01 X-62.1344 Y37.3835 
G01 X-62.0837 Y37.5060 
G01 X-62.0100 Y37.6163 
G01 X-61.9163 Y37.7100 
G01 X-61.8060 Y37.7837 
G01 X-61.6835 Y37.8344 
G01 X-61.5535 Y37.8603 
G01 X-0.7465 Y37.8603 
G01 X-0.6165 Y37.8344 
G01 X-0.4940 Y37.7837 
G01 X-0.3837 Y37.7100 
G01 X-0.2900 Y37.6163 
G01 X-0.2163 Y37.5060 
G01 X-0.1656 Y37.3835 
G01 X-0.1397 Y37.2535 
G01 X-0.1397 Y21.2981 
G01 X-0.1446 Y21.2737 
G01 X-0.1656 Y21.1680 
G01 X-0.1959 Y21.0948 
G01 X-0.2163 Y21.0455 
G01 X-0.2885 Y20.9375 
G01 X-0.3837 Y20.8415 
G01 X-0.4188 Y20.8181 
G01 X-0.4940 Y20.7679 
G01 X-0.6165 Y20.7171 
G01 X-0.6761 Y20.7053 
G01 X-0.6665 Y20.6450 
G01 X-0.6665 Y20.4350 
G01 X-0.6993 Y20.2277 
G01 X-0.7642 Y20.0281 
G01 X-0.8595 Y19.8411 
G01 X-0.9829 Y19.6713 
G01 X-1.1313 Y19.5229 
G01 X-1.3011 Y19.3995 
G01 X-1.4881 Y19.3042 
G01 X-1.5934 Y19.2700 
G01 X-1.4881 Y19.2358 
G01 X-1.3011 Y19.1405 
G01 X-1.1313 Y19.0171 
G01 X-0.9829 Y18.8687 
G01 X-0.8595 Y18.6989 
G01 X-0.7642 Y18.5119 
G01 X-0.6993 Y18.3123 
G01 X-0.6665 Y18.1049 
G01 X-0.6665 Y17.8950 
G01 X-0.6993 Y17.6877 
G01 X-0.7642 Y17.4881 
G01 X-0.8595 Y17.3011 
G01 X-0.9829 Y17.1313 
G01 X-1.1313 Y16.9829 
G01 X-1.3011 Y16.8595 
G01 X-1.4881 Y16.7642 
G01 X-1.5934 Y16.7300 
G01 X-1.4881 Y16.6958 
G01 X-1.3011 Y16.6005 
G01 X-1.1313 Y16.4771 
G01 X-0.9829 Y16.3287 
G01 X-0.8595 Y16.1589 
G01 X-0.7642 Y15.9719 
G01 X-0.6993 Y15.7723 
G01 X-0.6665 Y15.5649 
G01 X-0.6665 Y15.3550 
G01 X-0.6761 Y15.2947 
G01 X-0.6165 Y15.2829 
G01 X-0.4940 Y15.2321 
G01 X-0.4218 Y15.1839 
G01 X-0.3837 Y15.1585 
G01 X-0.2900 Y15.0647 
G01 X-0.2163 Y14.9545 
G01 X-0.1947 Y14.9023 
G01 X-0.1656 Y14.8320 
G01 X-0.1451 Y14.7293 
G01 X-0.1397 Y14.7019 
G01 X-0.1397 Y0.7465 
G01 X-0.1656 Y0.6165 
G01 X-0.2163 Y0.4940 
G01 X-0.2900 Y0.3837 
G00 Z2.5400 
G00 X-16.1562 Y1.7371 
G01 Z-0.1778 F254.00 
G01 X-15.7371 Y2.1561 F508.00 
G01 X-15.5103 Y2.7037 
G01 X-15.5103 Y3.2963 
G01 X-15.7371 Y3.8438 
G01 X-16.1562 Y4.2629 
G01 X-16.7037 Y4.4897 
G01 X-17.2963 Y4.4897 
G01 X-17.8438 Y4.2629 
G01 X-18.2629 Y3.8438 
G01 X-18.4897 Y3.2963 
G01 X-18.4897 Y2.7037 
G01 X-18.2629 Y2.1561 
G01 X-17.8438 Y1.7371 
G01 X-17.2963 Y1.5103 
G01 X-16.7037 Y1.5103 
G01 X-16.1562 Y1.7371 
G00 Z2.5400 
G00 X-44.4561 Y1.7371 
G01 Z-0.1778 F254.00 
G01 X-44.0371 Y2.1561 F508.00 
G01 X-43.8103 Y2.7037 
G01 X-43.8103 Y3.2963 
G01 X-44.0371 Y3.8438 
G01 X-44.4562 Y4.2629 
G01 X-45.0037 Y4.4897 
G01 X-45.5963 Y4.4897 
G01 X-46.1438 Y4.2629 
G01 X-46.5629 Y3.8438 
G01 X-46.7897 Y3.2963 
G01 X-46.7897 Y2.7037 
G01 X-46.5629 Y2.1561 
G01 X-46.1438 Y1.7371 
G01 X-45.5963 Y1.5103 
G01 X-45.0037 Y1.5103 
G01 X-44.4561 Y1.7371 
G00 Z2.5400 
G00 X-44.4562 Y33.7371 
G01 Z-0.1778 F254.00 
G01 X-44.0371 Y34.1561 F508.00 
G01 X-43.8103 Y34.7037 
G01 X-43.8103 Y35.2963 
G01 X-44.0371 Y35.8438 
G01 X-44.4562 Y36.2629 
G01 X-45.0037 Y36.4897 
G01 X-45.5963 Y36.4897 
G01 X-46.1438 Y36.2629 
G01 X-46.5629 Y35.8438 
G01 X-46.7897 Y35.2963 
G01 X-46.7897 Y34.7037 
G01 X-46.5629 Y34.1561 
G01 X-46.1438 Y33.7371 
G01 X-45.5963 Y33.5103 
G01 X-45.0037 Y33.5103 
G01 X-44.4562 Y33.7371 
G00 Z2.5400 
G00 X-18.2629 Y34.1561 
G01 Z-0.1778 F254.00 
G01 X-17.8438 Y33.7371 F508.00 
G01 X-17.2963 Y33.5103 
G01 X-16.7037 Y33.5103 
G01 X-16.1562 Y33.7371 
G01 X-15.7371 Y34.1561 
G01 X-15.5103 Y34.7037 
G01 X-15.5103 Y35.2963 
G01 X-15.7371 Y35.8438 
G01 X-16.1562 Y36.2629 
G01 X-16.7037 Y36.4897 
G01 X-17.2963 Y36.4897 
G01 X-17.8438 Y36.2629 
G01 X-18.2629 Y35.8438 
G01 X-18.4897 Y35.2963 
G01 X-18.4897 Y34.7037 
G01 X-18.2629 Y34.1561 
G00 Z2.5400 
G00 X-0.1913 Y0.3028 
G01 Z-0.1778 F254.00 
G01 X-0.3028 Y0.1913 F508.00 
G01 X-0.4338 Y0.1038 
G01 X-0.5794 Y0.0434 
G01 X-0.7340 Y0.0127 
G01 X-61.5660 Y0.0127 
G01 X-61.7206 Y0.0434 
G01 X-61.8662 Y0.1038 
G01 X-61.9972 Y0.1913 
G01 X-62.1087 Y0.3028 
G01 X-62.1962 Y0.4338 
G01 X-62.2565 Y0.5794 
G01 X-62.2873 Y0.7340 
G01 X-62.2873 Y14.5144 
G01 X-62.2725 Y14.5890 
G01 X-62.2565 Y14.6690 
G01 X-62.2230 Y14.7501 
G01 X-62.1962 Y14.8146 
G01 X-62.1087 Y14.9457 
G01 X-61.9972 Y15.0571 
G01 X-61.9212 Y15.1079 
G01 X-61.9245 Y15.1180 
G01 X-61.9605 Y15.3451 
G01 X-61.9605 Y15.5749 
G01 X-61.9245 Y15.8020 
G01 X-61.8535 Y16.0206 
G01 X-61.7491 Y16.2255 
G01 X-61.6140 Y16.4114 
G01 X-61.4515 Y16.5740 
G01 X-61.2655 Y16.7091 
G01 X-61.2245 Y16.7300 
G01 X-61.2655 Y16.7509 
G01 X-61.4515 Y16.8860 
G01 X-61.6140 Y17.0485 
G01 X-61.7491 Y17.2345 
G01 X-61.8535 Y17.4394 
G01 X-61.9245 Y17.6580 
G01 X-61.9605 Y17.8851 
G01 X-61.9605 Y18.1149 
G01 X-61.9245 Y18.3420 
G01 X-61.8535 Y18.5606 
G01 X-61.7491 Y18.7655 
G01 X-61.6140 Y18.9515 
G01 X-61.4515 Y19.1140 
G01 X-61.2655 Y19.2491 
G01 X-61.2245 Y19.2700 
G01 X-61.2655 Y19.2909 
G01 X-61.4515 Y19.4260 
G01 X-61.6140 Y19.5885 
G01 X-61.7491 Y19.7745 
G01 X-61.8535 Y19.9794 
G01 X-61.9245 Y20.1980 
G01 X-61.9605 Y20.4251 
G01 X-61.9605 Y20.6549 
G01 X-61.9245 Y20.8820 
G01 X-61.9212 Y20.8921 
G01 X-61.9972 Y20.9429 
G01 X-62.1087 Y21.0543 
G01 X-62.1962 Y21.1854 
G01 X-62.2195 Y21.2415 
G01 X-62.2565 Y21.3310 
G01 X-62.2716 Y21.4066 
G01 X-62.2873 Y21.4856 
G01 X-62.2873 Y37.2660 
G01 X-62.2565 Y37.4206 
G01 X-62.1962 Y37.5662 
G01 X-62.1087 Y37.6972 
G01 X-61.9972 Y37.8087 
G01 X-61.8662 Y37.8962 
G01 X-61.7206 Y37.9566 
G01 X-61.5660 Y37.9873 
G01 X-0.7340 Y37.9873 
G01 X-0.5794 Y37.9566 
G01 X-0.4338 Y37.8962 
G01 X-0.3028 Y37.8087 
G01 X-0.1913 Y37.6972 
G01 X-0.1038 Y37.5662 
G01 X-0.0434 Y37.4206 
G01 X-0.0127 Y37.2660 
G01 X-0.0127 Y21.2856 
G01 X-0.0434 Y21.1310 
G01 X-0.0677 Y21.0724 
G01 X-0.1038 Y20.9854 
G01 X-0.1340 Y20.9402 
G01 X-0.1913 Y20.8543 
G01 X-0.3010 Y20.7446 
G01 X-0.3445 Y20.7150 
G01 X-0.4338 Y20.6553 
G01 X-0.5395 Y20.6116 
G01 X-0.5395 Y20.4251 
G01 X-0.5755 Y20.1980 
G01 X-0.6465 Y19.9794 
G01 X-0.7509 Y19.7745 
G01 X-0.8860 Y19.5885 
G01 X-1.0485 Y19.4260 
G01 X-1.2345 Y19.2909 
G01 X-1.2755 Y19.2700 
G01 X-1.2345 Y19.2491 
G01 X-1.0485 Y19.1140 
G01 X-0.8860 Y18.9515 
G01 X-0.7509 Y18.7655 
G01 X-0.6465 Y18.5606 
G01 X-0.5755 Y18.3420 
G01 X-0.5395 Y18.1149 
G01 X-0.5395 Y17.8851 
G01 X-0.5755 Y17.6580 
G01 X-0.6465 Y17.4394 
G01 X-0.7509 Y17.2345 
G01 X-0.8860 Y17.0485 
G01 X-1.0485 Y16.8860 
G01 X-1.2345 Y16.7509 
G01 X-1.2755 Y16.7300 
G01 X-1.2345 Y16.7091 
G01 X-1.0485 Y16.5740 
G01 X-0.8860 Y16.4114 
G01 X-0.7509 Y16.2255 
G01 X-0.6465 Y16.0206 
G01 X-0.5755 Y15.8020 
G01 X-0.5395 Y15.5749 
G01 X-0.5395 Y15.3884 
G01 X-0.4338 Y15.3447 
G01 X-0.3480 Y15.2873 
G01 X-0.3028 Y15.2571 
G01 X-0.1913 Y15.1457 
G01 X-0.1316 Y15.0564 
G01 X-0.1038 Y15.0146 
G01 X-0.0692 Y14.9311 
G01 X-0.0434 Y14.8690 
G01 X-0.0127 Y14.7144 
G01 X-0.0127 Y0.7340 
G01 X-0.0434 Y0.5794 
G01 X-0.1038 Y0.4338 
G01 X-0.1913 Y0.3028 
G00 Z2.5400 
G00 X-16.2281 Y1.8448 
G01 Z-0.1778 F254.00 
G01 X-15.8448 Y2.2281 F508.00 
G01 X-15.6373 Y2.7289 
G01 X-15.6373 Y3.2711 
G01 X-15.8448 Y3.7719 
G01 X-16.2281 Y4.1552 
G01 X-16.7289 Y4.3627 
G01 X-17.2711 Y4.3627 
G01 X-17.7719 Y4.1552 
G01 X-18.1552 Y3.7719 
G01 X-18.3627 Y3.2711 
G01 X-18.3627 Y2.7289 
G01 X-18.1552 Y2.2281 
G01 X-17.7719 Y1.8448 
G01 X-17.2711 Y1.6373 
G01 X-16.7289 Y1.6373 
G01 X-16.2281 Y1.8448 
G00 Z2.5400 
G00 X-44.5281 Y1.8448 
G01 Z-0.1778 F254.00 
G01 X-44.1448 Y2.2281 F508.00 
G01 X-43.9373 Y2.7289 
G01 X-43.9373 Y3.2711 
G01 X-44.1448 Y3.7719 
G01 X-44.5281 Y4.1552 
G01 X-45.0289 Y4.3627 
G01 X-45.5711 Y4.3627 
G01 X-46.0719 Y4.1552 
G01 X-46.4552 Y3.7719 
G01 X-46.6627 Y3.2711 
G01 X-46.6627 Y2.7289 
G01 X-46.4552 Y2.2281 
G01 X-46.0719 Y1.8448 
G01 X-45.5711 Y1.6373 
G01 X-45.0289 Y1.6373 
G01 X-44.5281 Y1.8448 
G00 Z2.5400 
G00 X-44.5281 Y33.8448 
G01 Z-0.1778 F254.00 
G01 X-44.1448 Y34.2281 F508.00 
G01 X-43.9373 Y34.7289 
G01 X-43.9373 Y35.2711 
G01 X-44.1448 Y35.7719 
G01 X-44.5281 Y36.1552 
G01 X-45.0289 Y36.3627 
G01 X-45.5711 Y36.3627 
G01 X-46.0719 Y36.1552 
G01 X-46.4552 Y35.7719 
G01 X-46.6627 Y35.2711 
G01 X-46.6627 Y34.7289 
G01 X-46.4552 Y34.2281 
G01 X-46.0719 Y33.8448 
G01 X-45.5711 Y33.6373 
G01 X-45.0289 Y33.6373 
G01 X-44.5281 Y33.8448 
G00 Z2.5400 
G00 X-18.1552 Y34.2281 
G01 Z-0.1778 F254.00 
G01 X-17.7719 Y33.8448 F508.00 
G01 X-17.2711 Y33.6373 
G01 X-16.7289 Y33.6373 
G01 X-16.2281 Y33.8448 
G01 X-15.8448 Y34.2281 
G01 X-15.6373 Y34.7289 
G01 X-15.6373 Y35.2711 
G01 X-15.8448 Y35.7719 
G01 X-16.2281 Y36.1552 
G01 X-16.7289 Y36.3627 
G01 X-17.2711 Y36.3627 
G01 X-17.7719 Y36.1552 
G01 X-18.1552 Y35.7719 
G01 X-18.3627 Y35.2711 
G01 X-18.3627 Y34.7289 
G01 X-18.1552 Y34.2281 
G00 Z2.5400 
G00 X-0.0927 Y0.2218 
G01 Z-0.1778 F254.00 
G01 X-0.2218 Y0.0927 F508.00 
G01 X-0.3736 Y-0.0088 
G01 X-0.5424 Y-0.0787 
G01 X-0.7215 Y-0.1143 
G01 X-61.5785 Y-0.1143 
G01 X-61.7576 Y-0.0787 
G01 X-61.9263 Y-0.0088 
G01 X-62.0782 Y0.0927 
G01 X-62.2073 Y0.2218 
G01 X-62.3088 Y0.3736 
G01 X-62.3787 Y0.5424 
G01 X-62.4143 Y0.7215 
G01 X-62.4143 Y14.5269 
G01 X-62.4005 Y14.5962 
G01 X-62.3787 Y14.7061 
G01 X-62.3477 Y14.7808 
G01 X-62.3088 Y14.8748 
G01 X-62.2073 Y15.0266 
G01 X-62.0802 Y15.1537 
G01 X-62.0609 Y15.1673 
G01 X-62.0875 Y15.3351 
G01 X-62.0875 Y15.5849 
G01 X-62.0484 Y15.8317 
G01 X-61.9712 Y16.0694 
G01 X-61.8578 Y16.2920 
G01 X-61.7109 Y16.4942 
G01 X-61.5342 Y16.6709 
G01 X-61.4528 Y16.7300 
G01 X-61.5342 Y16.7891 
G01 X-61.7109 Y16.9658 
G01 X-61.8578 Y17.1680 
G01 X-61.9712 Y17.3906 
G01 X-62.0484 Y17.6283 
G01 X-62.0875 Y17.8751 
G01 X-62.0875 Y18.1249 
G01 X-62.0484 Y18.3717 
G01 X-61.9712 Y18.6094 
G01 X-61.8578 Y18.8320 
G01 X-61.7109 Y19.0342 
G01 X-61.5342 Y19.2109 
G01 X-61.4528 Y19.2700 
G01 X-61.5342 Y19.3291 
G01 X-61.7109 Y19.5058 
G01 X-61.8578 Y19.7080 
G01 X-61.9712 Y19.9306 
G01 X-62.0484 Y20.1683 
G01 X-62.0875 Y20.4151 
G01 X-62.0875 Y20.6649 
G01 X-62.0609 Y20.8327 
G01 X-62.0782 Y20.8442 
G01 X-62.2073 Y20.9734 
G01 X-62.3088 Y21.1252 
G01 X-62.3517 Y21.2289 
G01 X-62.3787 Y21.2939 
G01 X-62.3997 Y21.3998 
G01 X-62.4143 Y21.4730 
G01 X-62.4143 Y37.2785 
G01 X-62.3787 Y37.4576 
G01 X-62.3088 Y37.6263 
G01 X-62.2073 Y37.7782 
G01 X-62.0782 Y37.9073 
G01 X-61.9263 Y38.0088 
G01 X-61.7576 Y38.0787 
G01 X-61.5785 Y38.1143 
G01 X-0.7215 Y38.1143 
G01 X-0.5424 Y38.0787 
G01 X-0.3736 Y38.0088 
G01 X-0.2218 Y37.9073 
G01 X-0.0927 Y37.7782 
G01 X0.0088 Y37.6263 
G01 X0.0787 Y37.4576 
G01 X0.1143 Y37.2785 
G01 X0.1143 Y21.2731 
G01 X0.0787 Y21.0939 
G01 X0.0088 Y20.9252 
G01 X-0.0927 Y20.7734 
G01 X-0.2198 Y20.6463 
G01 X-0.3737 Y20.5428 
G01 X-0.4125 Y20.5267 
G01 X-0.4125 Y20.4151 
G01 X-0.4516 Y20.1683 
G01 X-0.5288 Y19.9306 
G01 X-0.6422 Y19.7080 
G01 X-0.7891 Y19.5058 
G01 X-0.9658 Y19.3291 
G01 X-1.0472 Y19.2700 
G01 X-0.9658 Y19.2109 
G01 X-0.7891 Y19.0342 
G01 X-0.6422 Y18.8320 
G01 X-0.5288 Y18.6094 
G01 X-0.4516 Y18.3717 
G01 X-0.4125 Y18.1249 
G01 X-0.4125 Y17.8751 
G01 X-0.4516 Y17.6283 
G01 X-0.5288 Y17.3906 
G01 X-0.6422 Y17.1680 
G01 X-0.7891 Y16.9658 
G01 X-0.9658 Y16.7891 
G01 X-1.0472 Y16.7300 
G01 X-0.9658 Y16.6709 
G01 X-0.7891 Y16.4942 
G01 X-0.6422 Y16.2920 
G01 X-0.5288 Y16.0694 
G01 X-0.4516 Y15.8317 
G01 X-0.4125 Y15.5849 
G01 X-0.4125 Y15.4733 
G01 X-0.3737 Y15.4572 
G01 X-0.2218 Y15.3558 
G01 X-0.0927 Y15.2266 
G01 X0.0088 Y15.0748 
G01 X0.0787 Y14.9061 
G01 X0.1143 Y14.7269 
G01 X0.1143 Y0.7215 
G01 X0.0787 Y0.5424 
G01 X0.0088 Y0.3736 
G01 X-0.0927 Y0.2218 
G00 Z2.5400 
G00 X-16.3000 Y1.9524 
G01 Z-0.1778 F254.00 
G01 X-15.9524 Y2.3000 F508.00 
G01 X-15.7643 Y2.7542 
G01 X-15.7643 Y3.2458 
G01 X-15.9524 Y3.7000 
G01 X-16.3000 Y4.0476 
G01 X-16.7542 Y4.2357 
G01 X-17.2458 Y4.2357 
G01 X-17.7000 Y4.0476 
G01 X-18.0476 Y3.7000 
G01 X-18.2357 Y3.2458 
G01 X-18.2357 Y2.7542 
G01 X-18.0476 Y2.3000 
G01 X-17.7000 Y1.9524 
G01 X-17.2458 Y1.7643 
G01 X-16.7542 Y1.7643 
G01 X-16.3000 Y1.9524 
G00 Z2.5400 
G00 X-44.2524 Y2.3000 
G01 Z-0.1778 F254.00 
G01 X-44.0643 Y2.7542 F508.00 
G01 X-44.0643 Y3.2458 
G01 X-44.2524 Y3.7000 
G01 X-44.6000 Y4.0476 
G01 X-45.0542 Y4.2357 
G01 X-45.5458 Y4.2357 
G01 X-46.0000 Y4.0476 
G01 X-46.3476 Y3.7000 
G01 X-46.5357 Y3.2458 
G01 X-46.5357 Y2.7542 
G01 X-46.3476 Y2.3000 
G01 X-46.0000 Y1.9524 
G01 X-45.5458 Y1.7643 
G01 X-45.0542 Y1.7643 
G01 X-44.6000 Y1.9524 
G01 X-44.2524 Y2.3000 
G00 Z2.5400 
G00 X-44.6000 Y33.9524 
G01 Z-0.1778 F254.00 
G01 X-44.2524 Y34.3000 F508.00 
G01 X-44.0643 Y34.7542 
G01 X-44.0643 Y35.2458 
G01 X-44.2524 Y35.7000 
G01 X-44.6000 Y36.0476 
G01 X-45.0542 Y36.2357 
G01 X-45.5458 Y36.2357 
G01 X-46.0000 Y36.0476 
G01 X-46.3476 Y35.7000 
G01 X-46.5357 Y35.2458 
G01 X-46.5357 Y34.7542 
G01 X-46.3476 Y34.3000 
G01 X-46.0000 Y33.9524 
G01 X-45.5458 Y33.7643 
G01 X-45.0542 Y33.7643 
G01 X-44.6000 Y33.9524 
G00 Z2.5400 
G00 X-18.0476 Y34.3000 
G01 Z-0.1778 F254.00 
G01 X-17.7000 Y33.9524 F508.00 
G01 X-17.2458 Y33.7643 
G01 X-16.7542 Y33.7643 
G01 X-16.3000 Y33.9524 
G01 X-15.9524 Y34.3000 
G01 X-15.7643 Y34.7542 
G01 X-15.7643 Y35.2458 
G01 X-15.9524 Y35.7000 
G01 X-16.3000 Y36.0476 
G01 X-16.7542 Y36.2357 
G01 X-17.2458 Y36.2357 
G01 X-17.7000 Y36.0476 
G01 X-18.0476 Y35.7000 
G01 X-18.2357 Y35.2458 
G01 X-18.2357 Y34.7542 
G01 X-18.0476 Y34.3000 
G00 Z2.5400 
G00 Z2.540000
G00 X-17.0000 Y35.0000 
G01 Z-0.2794 F508.00 
G01 Z2.540000
(R2.5400  P1.000000)
G00 X-45.3000 Y35.0000 
G01 Z-0.812800
G01 Z2.540000
G00 X-45.3000 Y3.0000 
G01 Z-0.812800
G01 Z2.540000
G00 X-17.0000 Y3.0000 
G01 Z-0.812800
G01 Z2.540000
G00 X-1.5000 Y36.5000 
G01 Z-0.812800
G01 Z2.540000
G00 X-61.0000 Y36.5000 
G01 Z-0.812800
G01 Z2.540000
G00 X-61.0000 Y1.5000 
G01 Z-0.812800
G01 Z2.540000
G00 X-1.5000 Y1.5000 
G01 Z-0.812800
G01 Z2.540000
G00 X-1.5000 Y23.0000 
G01 Z-0.812800
G01 Z2.540000
G00 X-1.5000 Y13.0000 
G01 Z-0.812800
G01 Z2.540000
G00 X-61.0000 Y23.0000 
G01 Z-0.812800
G01 Z2.540000
G00 X-61.0000 Y13.0000 
G01 Z-0.812800
G01 Z2.540000
G00 X-20.5000 Y36.5000 
G01 Z-0.812800
G01 Z2.540000
G00 X-42.0000 Y36.5000 
G01 Z-0.812800
G01 Z2.540000
G00 X-14.0000 Y1.5000 
G01 Z-0.812800
G01 Z2.540000
G00 X-48.5000 Y1.5000 
G01 Z-0.812800
G01 Z2.540000
G00 X-3.2220 Y5.0000 
G01 Z-0.812800
G01 Z2.540000
G00 X-6.7780 Y5.0000 
G01 Z-0.812800
G01 Z2.540000
G00 X-60.5000 Y20.5400 
G01 Z-0.812800
G01 Z2.540000
G00 X-60.5000 Y18.0000 
G01 Z-0.812800
G01 Z2.540000
G00 X-60.5000 Y15.4600 
G01 Z-0.812800
G01 Z2.540000
G00 X-2.0000 Y15.4600 
G01 Z-0.812800
G01 Z2.540000
G00 X-2.0000 Y18.0000 
G01 Z-0.812800
G01 Z2.540000
G00 X-2.0000 Y20.5400 
G01 Z-0.812800
G01 Z2.540000
G00 Z12.7000 
M05
M02
