(.../EAGLE-7.7.0/ulp/gcode/pcb-gcode.ulp)
(Copyright 2005 - 2012 by John Johnson)
(See readme.txt for licensing terms.)
(This file generated from the board:)
(.../Lixie-hardware/PCB/lixie_digit.brd)
(Current profile is .../ulp/gcode/profiles/generic.pp  )
(This file generated 20.01.2017 11:14)
(Settings from pcb-machine.h)
(spindle on time = 3.0000)
(  Tool Size)
(0.1778 )
(spindle speed = 30000.0000)
(tool change at 0.0000 0.0000 25.4000 )
(feed rate xy = F508.00 )
(feed rate z  = F254.00 )
(Z Axis Settings)
(  High     Up        Down     Drill)
(12.7000 	2.5400 	-0.1778 	-0.8128 )
(Settings from pcb-defaults.h)
(isolate min = 0.0254)
(isolate max = 0.5080)
(isolate step = 0.1270)
(Generated top outlines, top drill, bottom outlines, bottom drill, )
(Unit of measure: mm)
(Metric Mode)
G21
(Absolute Coordinates)
G90
S30000
G00 Z12.7000 
G00 X0.0000 Y0.0000 
M03
G04 P3.000000
G00 Z2.5400 
G00 X0.4304 Y0.4983 
G01 Z-0.1778 F254.00 
G01 X0.3937 Y0.5870 F508.00 
G01 X0.3937 Y25.3868 
G01 X0.4304 Y25.4755 
G01 X0.4983 Y25.5434 
G01 X0.5845 Y25.5791 
G01 X0.6830 Y25.5801 
G01 X0.7717 Y25.5434 
G01 X0.7747 Y25.5404 
G01 X0.7848 Y25.5303 
G01 X0.7809 Y25.5448 
G01 X0.7809 Y33.0552 
G01 X0.7848 Y33.0697 
G01 X0.7717 Y33.0566 
G01 X0.6830 Y33.0199 
G01 X0.5870 Y33.0199 
G01 X0.4983 Y33.0566 
G01 X0.4304 Y33.1245 
G01 X0.3937 Y33.2132 
G01 X0.3937 Y37.4130 
G01 X0.4304 Y37.5017 
G01 X0.4983 Y37.5696 
G01 X0.5870 Y37.6063 
G01 X61.7130 Y37.6063 
G01 X61.8017 Y37.5696 
G01 X61.8696 Y37.5017 
G01 X61.9063 Y37.4130 
G01 X61.9063 Y20.9317 
G01 X61.8952 Y20.9050 
G01 X61.8696 Y20.8430 
G01 X61.8017 Y20.7752 
G01 X61.7130 Y20.7384 
G01 X61.6170 Y20.7384 
G01 X61.5903 Y20.7495 
G01 X61.5576 Y20.7630 
G01 X61.5795 Y20.6250 
G01 X61.5795 Y20.4550 
G01 X61.5529 Y20.2872 
G01 X61.5004 Y20.1256 
G01 X61.4233 Y19.9742 
G01 X61.3234 Y19.8368 
G01 X61.2032 Y19.7166 
G01 X61.0658 Y19.6167 
G01 X60.9144 Y19.5396 
G01 X60.7528 Y19.4871 
G01 X60.5850 Y19.4605 
G01 X60.4150 Y19.4605 
G01 X60.3966 Y19.4634 
G01 X60.4075 Y19.4526 
G01 X60.4186 Y19.4258 
G01 X60.4337 Y19.4011 
G01 X60.4368 Y19.3819 
G01 X60.4442 Y19.3639 
G01 X60.4442 Y19.3349 
G01 X60.4487 Y19.3063 
G01 X60.4442 Y19.2874 
G01 X60.4442 Y19.2679 
G01 X60.4331 Y19.2411 
G01 X60.4263 Y19.2129 
G01 X60.4149 Y19.1972 
G01 X60.4075 Y19.1792 
G01 X60.3869 Y19.1587 
G01 X60.3699 Y19.1353 
G01 X60.3533 Y19.1251 
G01 X60.3396 Y19.1114 
G01 X60.3128 Y19.1003 
G01 X60.2880 Y19.0851 
G01 X60.2689 Y19.0821 
G01 X60.2509 Y19.0746 
G01 X60.2318 Y19.0746 
G01 X60.0759 Y19.0239 
G01 X59.9209 Y18.9450 
G01 X59.7802 Y18.8428 
G01 X59.6572 Y18.7198 
G01 X59.5550 Y18.5791 
G01 X59.4760 Y18.4241 
G01 X59.4579 Y18.3683 
G01 X59.4846 Y18.3683 
G01 X59.4996 Y18.4144 
G01 X59.5767 Y18.5658 
G01 X59.6766 Y18.7032 
G01 X59.7968 Y18.8234 
G01 X59.9342 Y18.9233 
G01 X60.0856 Y19.0004 
G01 X60.2472 Y19.0529 
G01 X60.4150 Y19.0795 
G01 X60.5850 Y19.0795 
G01 X60.7528 Y19.0529 
G01 X60.9144 Y19.0004 
G01 X61.0658 Y18.9233 
G01 X61.2032 Y18.8234 
G01 X61.3234 Y18.7032 
G01 X61.4233 Y18.5658 
G01 X61.5004 Y18.4144 
G01 X61.5529 Y18.2528 
G01 X61.5795 Y18.0850 
G01 X61.5795 Y17.9150 
G01 X61.5529 Y17.7472 
G01 X61.5004 Y17.5856 
G01 X61.4233 Y17.4342 
G01 X61.3234 Y17.2968 
G01 X61.2032 Y17.1766 
G01 X61.0658 Y17.0767 
G01 X60.9144 Y16.9996 
G01 X60.7528 Y16.9471 
G01 X60.5850 Y16.9205 
G01 X60.4150 Y16.9205 
G01 X60.2472 Y16.9471 
G01 X60.0856 Y16.9996 
G01 X59.9342 Y17.0767 
G01 X59.7968 Y17.1766 
G01 X59.6766 Y17.2968 
G01 X59.5767 Y17.4342 
G01 X59.4996 Y17.5856 
G01 X59.4846 Y17.6317 
G01 X59.4579 Y17.6317 
G01 X59.4760 Y17.5759 
G01 X59.5550 Y17.4209 
G01 X59.6572 Y17.2802 
G01 X59.7802 Y17.1572 
G01 X59.9209 Y17.0550 
G01 X60.0759 Y16.9760 
G01 X60.2318 Y16.9254 
G01 X60.2509 Y16.9254 
G01 X60.2689 Y16.9179 
G01 X60.2880 Y16.9149 
G01 X60.3128 Y16.8997 
G01 X60.3396 Y16.8886 
G01 X60.3533 Y16.8749 
G01 X60.3699 Y16.8647 
G01 X60.3869 Y16.8413 
G01 X60.4075 Y16.8208 
G01 X60.4149 Y16.8028 
G01 X60.4263 Y16.7871 
G01 X60.4331 Y16.7589 
G01 X60.4442 Y16.7321 
G01 X60.4442 Y16.7126 
G01 X60.4487 Y16.6937 
G01 X60.4442 Y16.6651 
G01 X60.4442 Y16.6361 
G01 X60.4368 Y16.6181 
G01 X60.4337 Y16.5989 
G01 X60.4186 Y16.5742 
G01 X60.4075 Y16.5474 
G01 X60.3966 Y16.5366 
G01 X60.4150 Y16.5395 
G01 X60.5850 Y16.5395 
G01 X60.7528 Y16.5129 
G01 X60.9144 Y16.4604 
G01 X61.0658 Y16.3833 
G01 X61.2032 Y16.2834 
G01 X61.3234 Y16.1632 
G01 X61.4233 Y16.0258 
G01 X61.5004 Y15.8744 
G01 X61.5529 Y15.7128 
G01 X61.5795 Y15.5450 
G01 X61.5795 Y15.3750 
G01 X61.5576 Y15.2370 
G01 X61.5918 Y15.2511 
G01 X61.6170 Y15.2616 
G01 X61.7130 Y15.2616 
G01 X61.8017 Y15.2248 
G01 X61.8696 Y15.1570 
G01 X61.8958 Y15.0935 
G01 X61.9063 Y15.0683 
G01 X61.9063 Y0.5870 
G01 X61.8696 Y0.4983 
G01 X61.8017 Y0.4304 
G01 X61.7130 Y0.3937 
G01 X0.5870 Y0.3937 
G01 X0.4983 Y0.4304 
G01 X0.4304 Y0.4983 
G00 Z2.5400 
G00 X6.3887 Y4.0602 
G01 Z-0.1778 F254.00 
G01 X6.4605 Y4.0602 F508.00 
G01 X6.4605 Y4.0856 
G01 X6.3992 Y4.0856 
G01 X5.8636 Y4.6212 
G01 X5.8636 Y4.6825 
G01 X5.8382 Y4.6825 
G01 X5.8382 Y4.6107 
G01 X6.3887 Y4.0602 
G00 Z2.5400 
G00 X7.0955 Y4.0602 
G01 Z-0.1778 F254.00 
G01 X7.1673 Y4.0602 F508.00 
G01 X7.7178 Y4.6107 
G01 X7.7178 Y4.6825 
G01 X7.6924 Y4.6825 
G01 X7.6924 Y4.6212 
G01 X7.1568 Y4.0856 
G01 X7.0955 Y4.0856 
G01 X7.0955 Y4.0602 
G00 Z2.5400 
G00 X7.0955 Y5.9144 
G01 Z-0.1778 F254.00 
G01 X7.1568 Y5.9144 F508.00 
G01 X7.6924 Y5.3788 
G01 X7.6924 Y5.3175 
G01 X7.7178 Y5.3175 
G01 X7.7178 Y5.3893 
G01 X7.1673 Y5.9398 
G01 X7.0955 Y5.9398 
G01 X7.0955 Y5.9144 
G00 Z2.5400 
G00 X6.4605 Y5.9144 
G01 Z-0.1778 F254.00 
G01 X6.4605 Y5.9398 F508.00 
G01 X6.3887 Y5.9398 
G01 X5.8382 Y5.3893 
G01 X5.8382 Y5.3175 
G01 X5.8636 Y5.3175 
G01 X5.8636 Y5.3788 
G01 X6.3992 Y5.9144 
G01 X6.4605 Y5.9144 
G00 Z2.5400 
G00 X8.1142 Y13.4882 
G01 Z-0.1778 F254.00 
G01 X8.1461 Y13.4698 F508.00 
G01 X8.1816 Y13.4603 
G01 X8.3107 Y13.4603 
G01 X8.3107 Y13.4857 
G01 X8.1773 Y13.4857 
G01 X8.1353 Y13.5031 
G01 X8.1031 Y13.5353 
G01 X8.0857 Y13.5773 
G01 X8.0857 Y14.0107 
G01 X8.0603 Y14.0107 
G01 X8.0603 Y13.5816 
G01 X8.0698 Y13.5461 
G01 X8.0882 Y13.5142 
G01 X8.1142 Y13.4882 
G00 Z2.5400 
G00 X8.9893 Y13.4857 
G01 Z-0.1778 F254.00 
G01 X8.9893 Y13.4603 F508.00 
G01 X9.1184 Y13.4603 
G01 X9.1539 Y13.4698 
G01 X9.1858 Y13.4882 
G01 X9.2118 Y13.5142 
G01 X9.2302 Y13.5461 
G01 X9.2397 Y13.5816 
G01 X9.2397 Y14.0107 
G01 X9.2143 Y14.0107 
G01 X9.2143 Y13.5773 
G01 X9.1969 Y13.5353 
G01 X9.1647 Y13.5031 
G01 X9.1227 Y13.4857 
G01 X8.9893 Y13.4857 
G00 Z2.5400 
G00 X9.2143 Y14.6893 
G01 Z-0.1778 F254.00 
G01 X9.2397 Y14.6893 F508.00 
G01 X9.2397 Y15.1184 
G01 X9.2302 Y15.1539 
G01 X9.2118 Y15.1858 
G01 X9.1858 Y15.2118 
G01 X9.1539 Y15.2302 
G01 X9.1184 Y15.2397 
G01 X8.9893 Y15.2397 
G01 X8.9893 Y15.2143 
G01 X9.1227 Y15.2143 
G01 X9.1647 Y15.1969 
G01 X9.1969 Y15.1647 
G01 X9.2143 Y15.1227 
G01 X9.2143 Y14.6893 
G00 Z2.5400 
G00 X8.0857 Y14.6893 
G01 Z-0.1778 F254.00 
G01 X8.0857 Y15.1227 F508.00 
G01 X8.1031 Y15.1647 
G01 X8.1353 Y15.1969 
G01 X8.1773 Y15.2143 
G01 X8.3107 Y15.2143 
G01 X8.3107 Y15.2397 
G01 X8.1816 Y15.2397 
G01 X8.1461 Y15.2302 
G01 X8.1142 Y15.2118 
G01 X8.0882 Y15.1858 
G01 X8.0698 Y15.1539 
G01 X8.0603 Y15.1184 
G01 X8.0603 Y14.6893 
G01 X8.0857 Y14.6893 
G00 Z2.5400 
G00 X2.1033 Y16.5366 
G01 Z-0.1778 F254.00 
G01 X2.0925 Y16.5474 F508.00 
G01 X2.0814 Y16.5742 
G01 X2.0663 Y16.5989 
G01 X2.0632 Y16.6181 
G01 X2.0558 Y16.6361 
G01 X2.0558 Y16.6651 
G01 X2.0513 Y16.6937 
G01 X2.0558 Y16.7126 
G01 X2.0558 Y16.7321 
G01 X2.0669 Y16.7589 
G01 X2.0737 Y16.7871 
G01 X2.0851 Y16.8028 
G01 X2.0925 Y16.8208 
G01 X2.1130 Y16.8413 
G01 X2.1301 Y16.8647 
G01 X2.1467 Y16.8749 
G01 X2.1604 Y16.8886 
G01 X2.1872 Y16.8997 
G01 X2.2119 Y16.9149 
G01 X2.2311 Y16.9179 
G01 X2.2491 Y16.9254 
G01 X2.2682 Y16.9254 
G01 X2.4241 Y16.9760 
G01 X2.5791 Y17.0550 
G01 X2.7198 Y17.1572 
G01 X2.8428 Y17.2802 
G01 X2.9450 Y17.4209 
G01 X3.0240 Y17.5759 
G01 X3.0421 Y17.6317 
G01 X3.0154 Y17.6317 
G01 X3.0004 Y17.5856 
G01 X2.9233 Y17.4342 
G01 X2.8234 Y17.2968 
G01 X2.7032 Y17.1766 
G01 X2.5658 Y17.0767 
G01 X2.4144 Y16.9996 
G01 X2.2528 Y16.9471 
G01 X2.0850 Y16.9205 
G01 X1.9150 Y16.9205 
G01 X1.7472 Y16.9471 
G01 X1.5856 Y16.9996 
G01 X1.4342 Y17.0767 
G01 X1.2968 Y17.1766 
G01 X1.1766 Y17.2968 
G01 X1.0767 Y17.4342 
G01 X0.9996 Y17.5856 
G01 X0.9846 Y17.6317 
G01 X0.9579 Y17.6317 
G01 X0.9760 Y17.5759 
G01 X1.0550 Y17.4209 
G01 X1.1572 Y17.2802 
G01 X1.2802 Y17.1572 
G01 X1.4209 Y17.0550 
G01 X1.5759 Y16.9760 
G01 X1.7318 Y16.9254 
G01 X1.7509 Y16.9254 
G01 X1.7688 Y16.9179 
G01 X1.7881 Y16.9149 
G01 X1.8128 Y16.8997 
G01 X1.8396 Y16.8886 
G01 X1.8533 Y16.8749 
G01 X1.8699 Y16.8647 
G01 X1.8869 Y16.8413 
G01 X1.9075 Y16.8208 
G01 X1.9149 Y16.8028 
G01 X1.9263 Y16.7871 
G01 X1.9331 Y16.7589 
G01 X1.9442 Y16.7321 
G01 X1.9442 Y16.7126 
G01 X1.9487 Y16.6937 
G01 X1.9442 Y16.6651 
G01 X1.9442 Y16.6361 
G01 X1.9367 Y16.6181 
G01 X1.9337 Y16.5989 
G01 X1.9185 Y16.5742 
G01 X1.9075 Y16.5474 
G01 X1.8966 Y16.5366 
G01 X1.9150 Y16.5395 
G01 X2.0850 Y16.5395 
G01 X2.1033 Y16.5366 
G00 Z2.5400 
G00 X2.0850 Y19.0795 
G01 Z-0.1778 F254.00 
G01 X2.2528 Y19.0529 F508.00 
G01 X2.4144 Y19.0004 
G01 X2.5658 Y18.9233 
G01 X2.7032 Y18.8234 
G01 X2.8234 Y18.7032 
G01 X2.9233 Y18.5658 
G01 X3.0004 Y18.4144 
G01 X3.0154 Y18.3683 
G01 X3.0421 Y18.3683 
G01 X3.0240 Y18.4241 
G01 X2.9450 Y18.5791 
G01 X2.8428 Y18.7198 
G01 X2.7834 Y18.7791 
G01 X2.7527 Y18.8533 
G01 X2.7467 Y18.8678 
G01 X2.7467 Y18.9163 
G01 X2.7467 Y18.9638 
G01 X2.7834 Y19.0525 
G01 X2.8400 Y19.1090 
G01 X2.8346 Y19.1116 
G01 X2.8306 Y19.1127 
G01 X2.7869 Y19.1391 
G01 X2.7427 Y19.1646 
G01 X2.7397 Y19.1676 
G01 X2.7361 Y19.1697 
G01 X2.7008 Y19.2065 
G01 X2.6646 Y19.2427 
G01 X2.6625 Y19.2463 
G01 X2.3886 Y19.5312 
G01 X2.2528 Y19.4871 
G01 X2.0850 Y19.4605 
G01 X1.9150 Y19.4605 
G01 X1.8966 Y19.4634 
G01 X1.9075 Y19.4526 
G01 X1.9185 Y19.4258 
G01 X1.9337 Y19.4011 
G01 X1.9367 Y19.3819 
G01 X1.9442 Y19.3639 
G01 X1.9442 Y19.3349 
G01 X1.9487 Y19.3063 
G01 X1.9442 Y19.2874 
G01 X1.9442 Y19.2679 
G01 X1.9331 Y19.2411 
G01 X1.9263 Y19.2129 
G01 X1.9149 Y19.1972 
G01 X1.9075 Y19.1792 
G01 X1.8869 Y19.1587 
G01 X1.8699 Y19.1353 
G01 X1.8533 Y19.1251 
G01 X1.8396 Y19.1114 
G01 X1.8128 Y19.1003 
G01 X1.7880 Y19.0851 
G01 X1.7689 Y19.0821 
G01 X1.7509 Y19.0746 
G01 X1.7318 Y19.0746 
G01 X1.5759 Y19.0239 
G01 X1.4209 Y18.9450 
G01 X1.2802 Y18.8428 
G01 X1.1572 Y18.7198 
G01 X1.0550 Y18.5791 
G01 X0.9760 Y18.4241 
G01 X0.9579 Y18.3683 
G01 X0.9846 Y18.3683 
G01 X0.9996 Y18.4144 
G01 X1.0767 Y18.5658 
G01 X1.1766 Y18.7032 
G01 X1.2968 Y18.8234 
G01 X1.4342 Y18.9233 
G01 X1.5856 Y19.0004 
G01 X1.7472 Y19.0529 
G01 X1.9150 Y19.0795 
G01 X2.0850 Y19.0795 
G00 Z2.5400 
G00 X2.1142 Y25.9882 
G01 Z-0.1778 F254.00 
G01 X2.1461 Y25.9698 F508.00 
G01 X2.1816 Y25.9603 
G01 X2.3107 Y25.9603 
G01 X2.3107 Y25.9857 
G01 X2.1773 Y25.9857 
G01 X2.1353 Y26.0031 
G01 X2.1031 Y26.0353 
G01 X2.0857 Y26.0773 
G01 X2.0857 Y26.5107 
G01 X2.0603 Y26.5107 
G01 X2.0603 Y26.0816 
G01 X2.0698 Y26.0461 
G01 X2.0882 Y26.0142 
G01 X2.1142 Y25.9882 
G00 Z2.5400 
G00 X2.9893 Y25.9857 
G01 Z-0.1778 F254.00 
G01 X2.9893 Y25.9603 F508.00 
G01 X3.1184 Y25.9603 
G01 X3.1539 Y25.9698 
G01 X3.1858 Y25.9882 
G01 X3.2118 Y26.0142 
G01 X3.2302 Y26.0461 
G01 X3.2397 Y26.0816 
G01 X3.2397 Y26.5107 
G01 X3.2143 Y26.5107 
G01 X3.2143 Y26.0773 
G01 X3.1969 Y26.0353 
G01 X3.1647 Y26.0031 
G01 X3.1227 Y25.9857 
G01 X2.9893 Y25.9857 
G00 Z2.5400 
G00 X3.2143 Y27.1893 
G01 Z-0.1778 F254.00 
G01 X3.2397 Y27.1893 F508.00 
G01 X3.2397 Y27.6184 
G01 X3.2302 Y27.6539 
G01 X3.2118 Y27.6858 
G01 X3.1858 Y27.7118 
G01 X3.1539 Y27.7302 
G01 X3.1184 Y27.7397 
G01 X2.9893 Y27.7397 
G01 X2.9893 Y27.7143 
G01 X3.1227 Y27.7143 
G01 X3.1647 Y27.6969 
G01 X3.1969 Y27.6647 
G01 X3.2143 Y27.6227 
G01 X3.2143 Y27.1893 
G00 Z2.5400 
G00 X2.0857 Y27.1893 
G01 Z-0.1778 F254.00 
G01 X2.0857 Y27.6227 F508.00 
G01 X2.1031 Y27.6647 
G01 X2.1353 Y27.6969 
G01 X2.1773 Y27.7143 
G01 X2.3107 Y27.7143 
G01 X2.3107 Y27.7397 
G01 X2.1816 Y27.7397 
G01 X2.1461 Y27.7302 
G01 X2.1142 Y27.7118 
G01 X2.0882 Y27.6858 
G01 X2.0698 Y27.6539 
G01 X2.0603 Y27.6184 
G01 X2.0603 Y27.1893 
G01 X2.0857 Y27.1893 
G00 Z2.5400 
G00 X8.0882 Y25.1858 
G01 Z-0.1778 F254.00 
G01 X8.0698 Y25.1539 F508.00 
G01 X8.0603 Y25.1184 
G01 X8.0603 Y24.6893 
G01 X8.0857 Y24.6893 
G01 X8.0857 Y25.1227 
G01 X8.1031 Y25.1647 
G01 X8.1353 Y25.1969 
G01 X8.1773 Y25.2143 
G01 X8.3107 Y25.2143 
G01 X8.3107 Y25.2397 
G01 X8.1816 Y25.2397 
G01 X8.1461 Y25.2302 
G01 X8.1142 Y25.2118 
G01 X8.0882 Y25.1858 
G00 Z2.5400 
G00 X8.9893 Y25.2143 
G01 Z-0.1778 F254.00 
G01 X9.1227 Y25.2143 F508.00 
G01 X9.1647 Y25.1969 
G01 X9.1969 Y25.1647 
G01 X9.2143 Y25.1227 
G01 X9.2143 Y24.6893 
G01 X9.2397 Y24.6893 
G01 X9.2397 Y25.1184 
G01 X9.2302 Y25.1539 
G01 X9.2118 Y25.1858 
G01 X9.1858 Y25.2118 
G01 X9.1539 Y25.2302 
G01 X9.1184 Y25.2397 
G01 X8.9893 Y25.2397 
G01 X8.9893 Y25.2143 
G00 Z2.5400 
G00 X9.2143 Y24.0107 
G01 Z-0.1778 F254.00 
G01 X9.2143 Y23.5773 F508.00 
G01 X9.1969 Y23.5353 
G01 X9.1647 Y23.5031 
G01 X9.1227 Y23.4857 
G01 X8.1773 Y23.4857 
G01 X8.1353 Y23.5031 
G01 X8.1031 Y23.5353 
G01 X8.0857 Y23.5773 
G01 X8.0857 Y24.0107 
G01 X8.0603 Y24.0107 
G01 X8.0603 Y23.5816 
G01 X8.0698 Y23.5461 
G01 X8.0777 Y23.5324 
G01 X8.0892 Y23.5209 
G01 X8.1015 Y23.4912 
G01 X8.1176 Y23.4633 
G01 X8.1197 Y23.4472 
G01 X8.1260 Y23.4322 
G01 X8.1260 Y23.4000 
G01 X8.1302 Y23.3681 
G01 X8.1260 Y23.3524 
G01 X8.1260 Y23.3362 
G01 X8.1136 Y23.3065 
G01 X8.1053 Y23.2754 
G01 X8.0954 Y23.2625 
G01 X8.0892 Y23.2475 
G01 X8.0665 Y23.2248 
G01 X8.0621 Y23.2191 
G01 X9.2379 Y23.2191 
G01 X9.2335 Y23.2248 
G01 X9.2108 Y23.2475 
G01 X9.2046 Y23.2625 
G01 X9.1947 Y23.2754 
G01 X9.1864 Y23.3065 
G01 X9.1740 Y23.3362 
G01 X9.1740 Y23.3524 
G01 X9.1698 Y23.3681 
G01 X9.1740 Y23.4000 
G01 X9.1740 Y23.4322 
G01 X9.1803 Y23.4472 
G01 X9.1824 Y23.4633 
G01 X9.1985 Y23.4912 
G01 X9.2108 Y23.5209 
G01 X9.2223 Y23.5324 
G01 X9.2302 Y23.5461 
G01 X9.2397 Y23.5816 
G01 X9.2397 Y24.0107 
G01 X9.2143 Y24.0107 
G00 Z2.5400 
G00 X14.0882 Y22.6858 
G01 Z-0.1778 F254.00 
G01 X14.0698 Y22.6539 F508.00 
G01 X14.0603 Y22.6184 
G01 X14.0603 Y22.1893 
G01 X14.0857 Y22.1893 
G01 X14.0857 Y22.6227 
G01 X14.1031 Y22.6647 
G01 X14.1353 Y22.6969 
G01 X14.1773 Y22.7143 
G01 X14.3107 Y22.7143 
G01 X14.3107 Y22.7397 
G01 X14.1816 Y22.7397 
G01 X14.1461 Y22.7302 
G01 X14.1142 Y22.7118 
G01 X14.0882 Y22.6858 
G00 Z2.5400 
G00 X14.9893 Y22.7143 
G01 Z-0.1778 F254.00 
G01 X15.1227 Y22.7143 F508.00 
G01 X15.1647 Y22.6969 
G01 X15.1969 Y22.6647 
G01 X15.2143 Y22.6227 
G01 X15.2143 Y22.1893 
G01 X15.2397 Y22.1893 
G01 X15.2397 Y22.6184 
G01 X15.2302 Y22.6539 
G01 X15.2118 Y22.6858 
G01 X15.1858 Y22.7118 
G01 X15.1539 Y22.7302 
G01 X15.1184 Y22.7397 
G01 X14.9893 Y22.7397 
G01 X14.9893 Y22.7143 
G00 Z2.5400 
G00 X15.2143 Y21.5107 
G01 Z-0.1778 F254.00 
G01 X15.2143 Y21.0773 F508.00 
G01 X15.1969 Y21.0353 
G01 X15.1647 Y21.0031 
G01 X15.1227 Y20.9857 
G01 X14.1773 Y20.9857 
G01 X14.1353 Y21.0031 
G01 X14.1031 Y21.0353 
G01 X14.0857 Y21.0773 
G01 X14.0857 Y21.5107 
G01 X14.0603 Y21.5107 
G01 X14.0603 Y21.0816 
G01 X14.0698 Y21.0461 
G01 X14.0777 Y21.0324 
G01 X14.0892 Y21.0209 
G01 X14.1015 Y20.9912 
G01 X14.1176 Y20.9633 
G01 X14.1197 Y20.9472 
G01 X14.1260 Y20.9322 
G01 X14.1260 Y20.9000 
G01 X14.1302 Y20.8681 
G01 X14.1260 Y20.8524 
G01 X14.1260 Y20.8362 
G01 X14.1136 Y20.8065 
G01 X14.1053 Y20.7754 
G01 X14.0954 Y20.7625 
G01 X14.0892 Y20.7475 
G01 X14.0665 Y20.7248 
G01 X14.0621 Y20.7191 
G01 X15.2379 Y20.7191 
G01 X15.2335 Y20.7248 
G01 X15.2108 Y20.7475 
G01 X15.2046 Y20.7625 
G01 X15.1947 Y20.7754 
G01 X15.1864 Y20.8065 
G01 X15.1740 Y20.8362 
G01 X15.1740 Y20.8524 
G01 X15.1698 Y20.8681 
G01 X15.1740 Y20.9000 
G01 X15.1740 Y20.9322 
G01 X15.1803 Y20.9472 
G01 X15.1824 Y20.9633 
G01 X15.1985 Y20.9912 
G01 X15.2108 Y21.0209 
G01 X15.2223 Y21.0324 
G01 X15.2302 Y21.0461 
G01 X15.2397 Y21.0816 
G01 X15.2397 Y21.5107 
G01 X15.2143 Y21.5107 
G00 Z2.5400 
G00 X15.5052 Y19.6691 
G01 Z-0.1778 F254.00 
G01 X15.6118 Y19.6405 F508.00 
G01 X15.7073 Y19.5854 
G01 X15.7854 Y19.5073 
G01 X17.6784 Y17.6143 
G01 X18.4227 Y17.6143 
G01 X18.4647 Y17.5969 
G01 X18.4969 Y17.5647 
G01 X18.5143 Y17.5227 
G01 X18.5143 Y17.1691 
G01 X21.5052 Y17.1691 
G01 X21.6118 Y17.1405 
G01 X21.7073 Y17.0854 
G01 X23.6784 Y15.1143 
G01 X24.4227 Y15.1143 
G01 X24.4647 Y15.0969 
G01 X24.4969 Y15.0647 
G01 X24.5143 Y15.0227 
G01 X24.5143 Y14.6691 
G01 X27.5052 Y14.6691 
G01 X27.6118 Y14.6405 
G01 X27.7073 Y14.5854 
G01 X29.6784 Y12.6143 
G01 X30.4227 Y12.6143 
G01 X30.4647 Y12.5969 
G01 X30.4969 Y12.5647 
G01 X30.5143 Y12.5227 
G01 X30.5143 Y12.1691 
G01 X33.5052 Y12.1691 
G01 X33.6118 Y12.1405 
G01 X33.7073 Y12.0854 
G01 X35.6784 Y10.1143 
G01 X36.4227 Y10.1143 
G01 X36.4647 Y10.0969 
G01 X36.4969 Y10.0647 
G01 X36.5003 Y10.0566 
G01 X36.5427 Y10.0990 
G01 X36.6314 Y10.1357 
G01 X36.6716 Y10.1357 
G01 X34.4264 Y12.3809 
G01 X31.0448 Y12.3809 
G01 X30.9382 Y12.4095 
G01 X30.8427 Y12.4646 
G01 X30.7646 Y12.5427 
G01 X28.4264 Y14.8809 
G01 X25.0448 Y14.8809 
G01 X24.9382 Y14.9095 
G01 X24.8427 Y14.9646 
G01 X24.7646 Y15.0427 
G01 X22.4264 Y17.3809 
G01 X19.0448 Y17.3809 
G01 X18.9382 Y17.4095 
G01 X18.8427 Y17.4646 
G01 X18.7646 Y17.5427 
G01 X16.4264 Y19.8809 
G01 X13.0448 Y19.8809 
G01 X12.9382 Y19.9095 
G01 X12.8427 Y19.9646 
G01 X12.7646 Y20.0427 
G01 X12.5357 Y20.2716 
G01 X12.5357 Y20.2314 
G01 X12.4990 Y20.1427 
G01 X12.4566 Y20.1003 
G01 X12.4647 Y20.0969 
G01 X12.4969 Y20.0647 
G01 X12.5143 Y20.0227 
G01 X12.5143 Y19.6691 
G01 X15.5052 Y19.6691 
G00 Z2.5400 
G00 X20.0603 Y19.6893 
G01 Z-0.1778 F254.00 
G01 X20.0857 Y19.6893 F508.00 
G01 X20.0857 Y20.1227 
G01 X20.1031 Y20.1647 
G01 X20.1353 Y20.1969 
G01 X20.1773 Y20.2143 
G01 X20.3107 Y20.2143 
G01 X20.3107 Y20.2397 
G01 X20.1816 Y20.2397 
G01 X20.1461 Y20.2302 
G01 X20.1142 Y20.2118 
G01 X20.0882 Y20.1858 
G01 X20.0698 Y20.1539 
G01 X20.0603 Y20.1184 
G01 X20.0603 Y19.6893 
G00 Z2.5400 
G00 X20.0603 Y19.0107 
G01 Z-0.1778 F254.00 
G01 X20.0603 Y18.5816 F508.00 
G01 X20.0698 Y18.5461 
G01 X20.0777 Y18.5324 
G01 X20.0892 Y18.5209 
G01 X20.1015 Y18.4912 
G01 X20.1176 Y18.4633 
G01 X20.1197 Y18.4472 
G01 X20.1260 Y18.4322 
G01 X20.1260 Y18.4000 
G01 X20.1302 Y18.3681 
G01 X20.1260 Y18.3524 
G01 X20.1260 Y18.3362 
G01 X20.1136 Y18.3065 
G01 X20.1053 Y18.2754 
G01 X20.0954 Y18.2625 
G01 X20.0892 Y18.2475 
G01 X20.0665 Y18.2248 
G01 X20.0621 Y18.2191 
G01 X21.2379 Y18.2191 
G01 X21.2335 Y18.2248 
G01 X21.2108 Y18.2475 
G01 X21.2046 Y18.2625 
G01 X21.1947 Y18.2754 
G01 X21.1864 Y18.3065 
G01 X21.1740 Y18.3362 
G01 X21.1740 Y18.3524 
G01 X21.1698 Y18.3681 
G01 X21.1740 Y18.4000 
G01 X21.1740 Y18.4322 
G01 X21.1803 Y18.4472 
G01 X21.1824 Y18.4633 
G01 X21.1985 Y18.4912 
G01 X21.2108 Y18.5209 
G01 X21.2223 Y18.5324 
G01 X21.2302 Y18.5461 
G01 X21.2397 Y18.5816 
G01 X21.2397 Y19.0107 
G01 X21.2143 Y19.0107 
G01 X21.2143 Y18.5773 
G01 X21.1969 Y18.5353 
G01 X21.1647 Y18.5031 
G01 X21.1227 Y18.4857 
G01 X20.1773 Y18.4857 
G01 X20.1353 Y18.5031 
G01 X20.1031 Y18.5353 
G01 X20.0857 Y18.5773 
G01 X20.0857 Y19.0107 
G01 X20.0603 Y19.0107 
G00 Z2.5400 
G00 X21.2143 Y19.6893 
G01 Z-0.1778 F254.00 
G01 X21.2397 Y19.6893 F508.00 
G01 X21.2397 Y20.1184 
G01 X21.2302 Y20.1539 
G01 X21.2118 Y20.1858 
G01 X21.1858 Y20.2118 
G01 X21.1539 Y20.2302 
G01 X21.1184 Y20.2397 
G01 X20.9893 Y20.2397 
G01 X20.9893 Y20.2143 
G01 X21.1227 Y20.2143 
G01 X21.1647 Y20.1969 
G01 X21.1969 Y20.1647 
G01 X21.2143 Y20.1227 
G01 X21.2143 Y19.6893 
G00 Z2.5400 
G00 X26.0882 Y17.6858 
G01 Z-0.1778 F254.00 
G01 X26.0698 Y17.6539 F508.00 
G01 X26.0603 Y17.6184 
G01 X26.0603 Y17.1893 
G01 X26.0857 Y17.1893 
G01 X26.0857 Y17.6227 
G01 X26.1031 Y17.6647 
G01 X26.1353 Y17.6969 
G01 X26.1773 Y17.7143 
G01 X26.3107 Y17.7143 
G01 X26.3107 Y17.7397 
G01 X26.1816 Y17.7397 
G01 X26.1461 Y17.7302 
G01 X26.1142 Y17.7118 
G01 X26.0882 Y17.6858 
G00 Z2.5400 
G00 X26.9893 Y17.7143 
G01 Z-0.1778 F254.00 
G01 X27.1227 Y17.7143 F508.00 
G01 X27.1647 Y17.6969 
G01 X27.1969 Y17.6647 
G01 X27.2143 Y17.6227 
G01 X27.2143 Y17.1893 
G01 X27.2397 Y17.1893 
G01 X27.2397 Y17.6184 
G01 X27.2302 Y17.6539 
G01 X27.2118 Y17.6858 
G01 X27.1858 Y17.7118 
G01 X27.1539 Y17.7302 
G01 X27.1184 Y17.7397 
G01 X26.9893 Y17.7397 
G01 X26.9893 Y17.7143 
G00 Z2.5400 
G00 X27.2143 Y16.5107 
G01 Z-0.1778 F254.00 
G01 X27.2143 Y16.0773 F508.00 
G01 X27.1969 Y16.0353 
G01 X27.1647 Y16.0031 
G01 X27.1227 Y15.9857 
G01 X26.1773 Y15.9857 
G01 X26.1353 Y16.0031 
G01 X26.1031 Y16.0353 
G01 X26.0857 Y16.0773 
G01 X26.0857 Y16.5107 
G01 X26.0603 Y16.5107 
G01 X26.0603 Y16.0816 
G01 X26.0698 Y16.0461 
G01 X26.0777 Y16.0324 
G01 X26.0892 Y16.0209 
G01 X26.1015 Y15.9912 
G01 X26.1176 Y15.9633 
G01 X26.1197 Y15.9472 
G01 X26.1260 Y15.9322 
G01 X26.1260 Y15.9000 
G01 X26.1302 Y15.8681 
G01 X26.1260 Y15.8524 
G01 X26.1260 Y15.8362 
G01 X26.1136 Y15.8065 
G01 X26.1053 Y15.7754 
G01 X26.0954 Y15.7625 
G01 X26.0892 Y15.7475 
G01 X26.0665 Y15.7248 
G01 X26.0621 Y15.7191 
G01 X27.2379 Y15.7191 
G01 X27.2335 Y15.7248 
G01 X27.2108 Y15.7475 
G01 X27.2046 Y15.7625 
G01 X27.1947 Y15.7754 
G01 X27.1864 Y15.8065 
G01 X27.1740 Y15.8362 
G01 X27.1740 Y15.8524 
G01 X27.1698 Y15.8681 
G01 X27.1740 Y15.9000 
G01 X27.1740 Y15.9322 
G01 X27.1803 Y15.9472 
G01 X27.1824 Y15.9633 
G01 X27.1985 Y15.9912 
G01 X27.2108 Y16.0209 
G01 X27.2223 Y16.0324 
G01 X27.2302 Y16.0461 
G01 X27.2397 Y16.0816 
G01 X27.2397 Y16.5107 
G01 X27.2143 Y16.5107 
G00 Z2.5400 
G00 X32.0882 Y15.1858 
G01 Z-0.1778 F254.00 
G01 X32.0698 Y15.1539 F508.00 
G01 X32.0603 Y15.1184 
G01 X32.0603 Y14.6893 
G01 X32.0857 Y14.6893 
G01 X32.0857 Y15.1227 
G01 X32.1031 Y15.1647 
G01 X32.1353 Y15.1969 
G01 X32.1773 Y15.2143 
G01 X32.3107 Y15.2143 
G01 X32.3107 Y15.2397 
G01 X32.1816 Y15.2397 
G01 X32.1461 Y15.2302 
G01 X32.1142 Y15.2118 
G01 X32.0882 Y15.1858 
G00 Z2.5400 
G00 X32.9893 Y15.2143 
G01 Z-0.1778 F254.00 
G01 X33.1227 Y15.2143 F508.00 
G01 X33.1647 Y15.1969 
G01 X33.1969 Y15.1647 
G01 X33.2143 Y15.1227 
G01 X33.2143 Y14.6893 
G01 X33.2397 Y14.6893 
G01 X33.2397 Y15.1184 
G01 X33.2302 Y15.1539 
G01 X33.2118 Y15.1858 
G01 X33.1858 Y15.2118 
G01 X33.1539 Y15.2302 
G01 X33.1184 Y15.2397 
G01 X32.9893 Y15.2397 
G01 X32.9893 Y15.2143 
G00 Z2.5400 
G00 X33.2143 Y14.0107 
G01 Z-0.1778 F254.00 
G01 X33.2143 Y13.5773 F508.00 
G01 X33.1969 Y13.5353 
G01 X33.1647 Y13.5031 
G01 X33.1227 Y13.4857 
G01 X32.1773 Y13.4857 
G01 X32.1353 Y13.5031 
G01 X32.1031 Y13.5353 
G01 X32.0857 Y13.5773 
G01 X32.0857 Y14.0107 
G01 X32.0603 Y14.0107 
G01 X32.0603 Y13.5816 
G01 X32.0698 Y13.5461 
G01 X32.0777 Y13.5324 
G01 X32.0892 Y13.5209 
G01 X32.1015 Y13.4912 
G01 X32.1176 Y13.4633 
G01 X32.1197 Y13.4472 
G01 X32.1260 Y13.4322 
G01 X32.1260 Y13.4000 
G01 X32.1302 Y13.3681 
G01 X32.1260 Y13.3524 
G01 X32.1260 Y13.3362 
G01 X32.1136 Y13.3065 
G01 X32.1053 Y13.2754 
G01 X32.0954 Y13.2625 
G01 X32.0892 Y13.2475 
G01 X32.0665 Y13.2248 
G01 X32.0621 Y13.2191 
G01 X33.2379 Y13.2191 
G01 X33.2335 Y13.2248 
G01 X33.2108 Y13.2475 
G01 X33.2046 Y13.2625 
G01 X33.1947 Y13.2754 
G01 X33.1864 Y13.3065 
G01 X33.1740 Y13.3362 
G01 X33.1740 Y13.3524 
G01 X33.1698 Y13.3681 
G01 X33.1740 Y13.4000 
G01 X33.1740 Y13.4322 
G01 X33.1803 Y13.4472 
G01 X33.1824 Y13.4633 
G01 X33.1985 Y13.4912 
G01 X33.2108 Y13.5209 
G01 X33.2223 Y13.5324 
G01 X33.2302 Y13.5461 
G01 X33.2397 Y13.5816 
G01 X33.2397 Y14.0107 
G01 X33.2143 Y14.0107 
G00 Z2.5400 
G00 X38.0882 Y12.6858 
G01 Z-0.1778 F254.00 
G01 X38.0698 Y12.6539 F508.00 
G01 X38.0603 Y12.6184 
G01 X38.0603 Y12.1893 
G01 X38.0857 Y12.1893 
G01 X38.0857 Y12.6227 
G01 X38.1031 Y12.6647 
G01 X38.1353 Y12.6969 
G01 X38.1773 Y12.7143 
G01 X38.3107 Y12.7143 
G01 X38.3107 Y12.7397 
G01 X38.1816 Y12.7397 
G01 X38.1461 Y12.7302 
G01 X38.1142 Y12.7118 
G01 X38.0882 Y12.6858 
G00 Z2.5400 
G00 X38.9893 Y12.7143 
G01 Z-0.1778 F254.00 
G01 X39.1227 Y12.7143 F508.00 
G01 X39.1647 Y12.6969 
G01 X39.1969 Y12.6647 
G01 X39.2143 Y12.6227 
G01 X39.2143 Y12.1893 
G01 X39.2397 Y12.1893 
G01 X39.2397 Y12.6184 
G01 X39.2302 Y12.6539 
G01 X39.2118 Y12.6858 
G01 X39.1858 Y12.7118 
G01 X39.1539 Y12.7302 
G01 X39.1184 Y12.7397 
G01 X38.9893 Y12.7397 
G01 X38.9893 Y12.7143 
G00 Z2.5400 
G00 X39.2143 Y11.5107 
G01 Z-0.1778 F254.00 
G01 X39.2143 Y11.0773 F508.00 
G01 X39.1969 Y11.0353 
G01 X39.1647 Y11.0031 
G01 X39.1227 Y10.9857 
G01 X38.9893 Y10.9857 
G01 X38.9893 Y10.9603 
G01 X39.1184 Y10.9603 
G01 X39.1539 Y10.9698 
G01 X39.1858 Y10.9882 
G01 X39.2118 Y11.0142 
G01 X39.2302 Y11.0461 
G01 X39.2397 Y11.0816 
G01 X39.2397 Y11.5107 
G01 X39.2143 Y11.5107 
G00 Z2.5400 
G00 X38.0857 Y11.5107 
G01 Z-0.1778 F254.00 
G01 X38.0603 Y11.5107 F508.00 
G01 X38.0603 Y11.0816 
G01 X38.0698 Y11.0461 
G01 X38.0882 Y11.0142 
G01 X38.1142 Y10.9882 
G01 X38.1461 Y10.9698 
G01 X38.1816 Y10.9603 
G01 X38.3107 Y10.9603 
G01 X38.3107 Y10.9857 
G01 X38.1773 Y10.9857 
G01 X38.1353 Y11.0031 
G01 X38.1031 Y11.0353 
G01 X38.0857 Y11.0773 
G01 X38.0857 Y11.5107 
G00 Z2.5400 
G00 X44.0882 Y10.1858 
G01 Z-0.1778 F254.00 
G01 X44.0698 Y10.1539 F508.00 
G01 X44.0603 Y10.1184 
G01 X44.0603 Y9.6893 
G01 X44.0857 Y9.6893 
G01 X44.0857 Y10.1227 
G01 X44.1031 Y10.1647 
G01 X44.1353 Y10.1969 
G01 X44.1773 Y10.2143 
G01 X44.3107 Y10.2143 
G01 X44.3107 Y10.2397 
G01 X44.1816 Y10.2397 
G01 X44.1461 Y10.2302 
G01 X44.1142 Y10.2118 
G01 X44.0882 Y10.1858 
G00 Z2.5400 
G00 X44.9893 Y10.2143 
G01 Z-0.1778 F254.00 
G01 X45.1227 Y10.2143 F508.00 
G01 X45.1647 Y10.1969 
G01 X45.1969 Y10.1647 
G01 X45.2143 Y10.1227 
G01 X45.2143 Y9.6893 
G01 X45.2397 Y9.6893 
G01 X45.2397 Y10.1184 
G01 X45.2302 Y10.1539 
G01 X45.2118 Y10.1858 
G01 X45.1858 Y10.2118 
G01 X45.1539 Y10.2302 
G01 X45.1184 Y10.2397 
G01 X44.9893 Y10.2397 
G01 X44.9893 Y10.2143 
G00 Z2.5400 
G00 X45.2143 Y9.0107 
G01 Z-0.1778 F254.00 
G01 X45.2143 Y8.5773 F508.00 
G01 X45.1969 Y8.5353 
G01 X45.1647 Y8.5031 
G01 X45.1227 Y8.4857 
G01 X44.9893 Y8.4857 
G01 X44.9893 Y8.4603 
G01 X45.1184 Y8.4603 
G01 X45.1539 Y8.4698 
G01 X45.1858 Y8.4882 
G01 X45.2118 Y8.5142 
G01 X45.2302 Y8.5461 
G01 X45.2397 Y8.5816 
G01 X45.2397 Y9.0107 
G01 X45.2143 Y9.0107 
G00 Z2.5400 
G00 X44.0857 Y9.0107 
G01 Z-0.1778 F254.00 
G01 X44.0603 Y9.0107 F508.00 
G01 X44.0603 Y8.5816 
G01 X44.0698 Y8.5461 
G01 X44.0882 Y8.5142 
G01 X44.1142 Y8.4882 
G01 X44.1461 Y8.4698 
G01 X44.1816 Y8.4603 
G01 X44.3107 Y8.4603 
G01 X44.3107 Y8.4857 
G01 X44.1773 Y8.4857 
G01 X44.1353 Y8.5031 
G01 X44.1031 Y8.5353 
G01 X44.0857 Y8.5773 
G01 X44.0857 Y9.0107 
G00 Z2.5400 
G00 X44.3123 Y4.4782 
G01 Z-0.1778 F254.00 
G01 X43.8218 Y3.9877 F508.00 
G01 X43.5563 Y3.3468 
G01 X43.5563 Y2.6532 
G01 X43.8218 Y2.0123 
G01 X44.3123 Y1.5218 
G01 X44.9532 Y1.2563 
G01 X45.6468 Y1.2563 
G01 X46.2877 Y1.5218 
G01 X46.7782 Y2.0123 
G01 X47.0437 Y2.6532 
G01 X47.0437 Y3.3468 
G01 X46.7782 Y3.9877 
G01 X46.2877 Y4.4782 
G01 X45.6468 Y4.7437 
G01 X44.9532 Y4.7437 
G01 X44.3123 Y4.4782 
G00 Z2.5400 
G00 X50.1142 Y5.9882 
G01 Z-0.1778 F254.00 
G01 X50.1461 Y5.9698 F508.00 
G01 X50.1816 Y5.9603 
G01 X50.3107 Y5.9603 
G01 X50.3107 Y5.9857 
G01 X50.1773 Y5.9857 
G01 X50.1353 Y6.0031 
G01 X50.1031 Y6.0353 
G01 X50.0857 Y6.0773 
G01 X50.0857 Y6.5107 
G01 X50.0603 Y6.5107 
G01 X50.0603 Y6.0816 
G01 X50.0698 Y6.0461 
G01 X50.0882 Y6.0142 
G01 X50.1142 Y5.9882 
G00 Z2.5400 
G00 X50.9893 Y5.9857 
G01 Z-0.1778 F254.00 
G01 X50.9893 Y5.9603 F508.00 
G01 X51.1184 Y5.9603 
G01 X51.1539 Y5.9698 
G01 X51.1858 Y5.9882 
G01 X51.2118 Y6.0142 
G01 X51.2302 Y6.0461 
G01 X51.2397 Y6.0816 
G01 X51.2397 Y6.5107 
G01 X51.2143 Y6.5107 
G01 X51.2143 Y6.0773 
G01 X51.1969 Y6.0353 
G01 X51.1647 Y6.0031 
G01 X51.1227 Y5.9857 
G01 X50.9893 Y5.9857 
G00 Z2.5400 
G00 X51.2143 Y7.1893 
G01 Z-0.1778 F254.00 
G01 X51.2397 Y7.1893 F508.00 
G01 X51.2397 Y7.6184 
G01 X51.2302 Y7.6539 
G01 X51.2118 Y7.6858 
G01 X51.1858 Y7.7118 
G01 X51.1539 Y7.7302 
G01 X51.1184 Y7.7397 
G01 X50.9893 Y7.7397 
G01 X50.9893 Y7.7143 
G01 X51.1227 Y7.7143 
G01 X51.1647 Y7.6969 
G01 X51.1969 Y7.6647 
G01 X51.2143 Y7.6227 
G01 X51.2143 Y7.1893 
G00 Z2.5400 
G00 X50.0857 Y7.1893 
G01 Z-0.1778 F254.00 
G01 X50.0857 Y7.6227 F508.00 
G01 X50.1031 Y7.6647 
G01 X50.1353 Y7.6969 
G01 X50.1773 Y7.7143 
G01 X50.3107 Y7.7143 
G01 X50.3107 Y7.7397 
G01 X50.1816 Y7.7397 
G01 X50.1461 Y7.7302 
G01 X50.1142 Y7.7118 
G01 X50.0882 Y7.6858 
G01 X50.0698 Y7.6539 
G01 X50.0603 Y7.6184 
G01 X50.0603 Y7.1893 
G01 X50.0857 Y7.1893 
G00 Z2.5400 
G00 X51.1566 Y12.6003 
G01 Z-0.1778 F254.00 
G01 X51.1647 Y12.5969 F508.00 
G01 X51.1969 Y12.5647 
G01 X51.2003 Y12.5566 
G01 X51.2427 Y12.5990 
G01 X51.3314 Y12.6357 
G01 X51.3716 Y12.6357 
G01 X51.2357 Y12.7716 
G01 X51.2357 Y12.7314 
G01 X51.1990 Y12.6427 
G01 X51.1566 Y12.6003 
G00 Z2.5400 
G00 X52.4646 Y12.9427 
G01 Z-0.1778 F254.00 
G01 X50.6264 Y14.7809 F508.00 
G01 X49.1448 Y14.7809 
G01 X49.0382 Y14.8095 
G01 X48.9427 Y14.8646 
G01 X48.8646 Y14.9427 
G01 X46.4264 Y17.3809 
G01 X43.0448 Y17.3809 
G01 X42.9382 Y17.4095 
G01 X42.8427 Y17.4646 
G01 X42.7646 Y17.5427 
G01 X40.4264 Y19.8809 
G01 X37.0448 Y19.8809 
G01 X36.9382 Y19.9095 
G01 X36.8427 Y19.9646 
G01 X36.7646 Y20.0427 
G01 X34.4264 Y22.3809 
G01 X31.1448 Y22.3809 
G01 X31.0382 Y22.4095 
G01 X30.9427 Y22.4646 
G01 X30.8646 Y22.5427 
G01 X30.6357 Y22.7716 
G01 X30.6357 Y22.7314 
G01 X30.5990 Y22.6427 
G01 X30.5311 Y22.5748 
G01 X30.4983 Y22.5613 
G01 X30.5143 Y22.5227 
G01 X30.5143 Y22.1691 
G01 X33.5052 Y22.1691 
G01 X33.6118 Y22.1405 
G01 X33.7073 Y22.0854 
G01 X33.7854 Y22.0073 
G01 X35.6784 Y20.1143 
G01 X36.4227 Y20.1143 
G01 X36.4647 Y20.0969 
G01 X36.4969 Y20.0647 
G01 X36.5143 Y20.0227 
G01 X36.5143 Y19.6691 
G01 X39.5052 Y19.6691 
G01 X39.6118 Y19.6405 
G01 X39.7073 Y19.5854 
G01 X39.7854 Y19.5073 
G01 X41.6784 Y17.6143 
G01 X42.4227 Y17.6143 
G01 X42.4647 Y17.5969 
G01 X42.4969 Y17.5647 
G01 X42.5143 Y17.5227 
G01 X42.5143 Y17.1691 
G01 X45.5052 Y17.1691 
G01 X45.6118 Y17.1405 
G01 X45.7073 Y17.0854 
G01 X45.7854 Y17.0073 
G01 X47.6784 Y15.1143 
G01 X48.4227 Y15.1143 
G01 X48.4647 Y15.0969 
G01 X48.4969 Y15.0647 
G01 X48.5143 Y15.0227 
G01 X48.5143 Y14.6191 
G01 X50.4552 Y14.6191 
G01 X50.5618 Y14.5905 
G01 X50.6573 Y14.5354 
G01 X52.9736 Y12.2191 
G01 X53.3857 Y12.2191 
G01 X53.3857 Y12.5227 
G01 X53.4031 Y12.5647 
G01 X53.4353 Y12.5969 
G01 X53.4773 Y12.6143 
G01 X54.4227 Y12.6143 
G01 X54.4647 Y12.5969 
G01 X54.4969 Y12.5647 
G01 X54.5143 Y12.5227 
G01 X54.5143 Y12.1691 
G01 X57.5052 Y12.1691 
G01 X57.6118 Y12.1405 
G01 X57.7073 Y12.0854 
G01 X57.7854 Y12.0073 
G01 X59.6784 Y10.1143 
G01 X60.4227 Y10.1143 
G01 X60.4647 Y10.0969 
G01 X60.4809 Y10.0807 
G01 X60.4809 Y10.3264 
G01 X58.0264 Y12.7809 
G01 X52.7448 Y12.7809 
G01 X52.6382 Y12.8095 
G01 X52.5427 Y12.8646 
G01 X52.4646 Y12.9427 
G00 Z2.5400 
G00 X50.8914 Y15.6094 
G01 Z-0.1778 F254.00 
G01 X50.8659 Y15.6710 F508.00 
G01 X50.8659 Y15.7670 
G01 X50.9026 Y15.8557 
G01 X50.9705 Y15.9236 
G01 X51.0592 Y15.9603 
G01 X51.1184 Y15.9603 
G01 X51.1539 Y15.9698 
G01 X51.1858 Y15.9882 
G01 X51.2118 Y16.0142 
G01 X51.2302 Y16.0461 
G01 X51.2397 Y16.0816 
G01 X51.2397 Y16.5107 
G01 X51.2143 Y16.5107 
G01 X51.2143 Y16.0773 
G01 X51.1969 Y16.0353 
G01 X51.1647 Y16.0031 
G01 X51.1227 Y15.9857 
G01 X50.1773 Y15.9857 
G01 X50.1353 Y16.0031 
G01 X50.1031 Y16.0353 
G01 X50.0857 Y16.0773 
G01 X50.0857 Y16.5107 
G01 X50.0603 Y16.5107 
G01 X50.0603 Y16.0816 
G01 X50.0698 Y16.0461 
G01 X50.0882 Y16.0142 
G01 X50.1080 Y15.9944 
G01 X50.1217 Y15.9888 
G01 X50.1331 Y15.9773 
G01 X50.1472 Y15.9692 
G01 X50.1668 Y15.9436 
G01 X50.1896 Y15.9209 
G01 X50.1958 Y15.9059 
G01 X50.2056 Y15.8930 
G01 X50.2140 Y15.8619 
G01 X50.2263 Y15.8322 
G01 X50.2263 Y15.8160 
G01 X50.2305 Y15.8003 
G01 X50.2263 Y15.7684 
G01 X50.2263 Y15.7362 
G01 X50.2201 Y15.7212 
G01 X50.2180 Y15.7051 
G01 X50.2019 Y15.6772 
G01 X50.1896 Y15.6475 
G01 X50.1781 Y15.6360 
G01 X50.1700 Y15.6220 
G01 X50.1662 Y15.6191 
G01 X50.8552 Y15.6191 
G01 X50.8914 Y15.6094 
G00 Z2.5400 
G00 X51.2143 Y17.1893 
G01 Z-0.1778 F254.00 
G01 X51.2397 Y17.1893 F508.00 
G01 X51.2397 Y17.6184 
G01 X51.2302 Y17.6539 
G01 X51.2118 Y17.6858 
G01 X51.1858 Y17.7118 
G01 X51.1539 Y17.7302 
G01 X51.1184 Y17.7397 
G01 X50.9893 Y17.7397 
G01 X50.9893 Y17.7143 
G01 X51.1227 Y17.7143 
G01 X51.1647 Y17.6969 
G01 X51.1969 Y17.6647 
G01 X51.2143 Y17.6227 
G01 X51.2143 Y17.1893 
G00 Z2.5400 
G00 X50.0857 Y17.1893 
G01 Z-0.1778 F254.00 
G01 X50.0857 Y17.6227 F508.00 
G01 X50.1031 Y17.6647 
G01 X50.1353 Y17.6969 
G01 X50.1773 Y17.7143 
G01 X50.3107 Y17.7143 
G01 X50.3107 Y17.7397 
G01 X50.1816 Y17.7397 
G01 X50.1461 Y17.7302 
G01 X50.1142 Y17.7118 
G01 X50.0882 Y17.6858 
G01 X50.0698 Y17.6539 
G01 X50.0603 Y17.6184 
G01 X50.0603 Y17.1893 
G01 X50.0857 Y17.1893 
G00 Z2.5400 
G00 X45.2379 Y18.2191 
G01 Z-0.1778 F254.00 
G01 X45.2335 Y18.2248 F508.00 
G01 X45.2108 Y18.2475 
G01 X45.2046 Y18.2625 
G01 X45.1947 Y18.2754 
G01 X45.1864 Y18.3065 
G01 X45.1740 Y18.3362 
G01 X45.1740 Y18.3524 
G01 X45.1698 Y18.3681 
G01 X45.1740 Y18.4000 
G01 X45.1740 Y18.4322 
G01 X45.1803 Y18.4472 
G01 X45.1824 Y18.4633 
G01 X45.1985 Y18.4912 
G01 X45.2108 Y18.5209 
G01 X45.2223 Y18.5324 
G01 X45.2302 Y18.5461 
G01 X45.2397 Y18.5816 
G01 X45.2397 Y19.0107 
G01 X45.2143 Y19.0107 
G01 X45.2143 Y18.5773 
G01 X45.1969 Y18.5353 
G01 X45.1647 Y18.5031 
G01 X45.1227 Y18.4857 
G01 X44.1773 Y18.4857 
G01 X44.1353 Y18.5031 
G01 X44.1031 Y18.5353 
G01 X44.0857 Y18.5773 
G01 X44.0857 Y19.0107 
G01 X44.0603 Y19.0107 
G01 X44.0603 Y18.5816 
G01 X44.0698 Y18.5461 
G01 X44.0777 Y18.5324 
G01 X44.0892 Y18.5209 
G01 X44.1015 Y18.4912 
G01 X44.1176 Y18.4633 
G01 X44.1197 Y18.4472 
G01 X44.1260 Y18.4322 
G01 X44.1260 Y18.4000 
G01 X44.1302 Y18.3681 
G01 X44.1260 Y18.3524 
G01 X44.1260 Y18.3362 
G01 X44.1136 Y18.3065 
G01 X44.1053 Y18.2754 
G01 X44.0954 Y18.2625 
G01 X44.0892 Y18.2475 
G01 X44.0665 Y18.2248 
G01 X44.0621 Y18.2191 
G01 X45.2379 Y18.2191 
G00 Z2.5400 
G00 X45.2397 Y19.6893 
G01 Z-0.1778 F254.00 
G01 X45.2397 Y20.1184 F508.00 
G01 X45.2302 Y20.1539 
G01 X45.2118 Y20.1858 
G01 X45.1858 Y20.2118 
G01 X45.1539 Y20.2302 
G01 X45.1184 Y20.2397 
G01 X44.9893 Y20.2397 
G01 X44.9893 Y20.2143 
G01 X45.1227 Y20.2143 
G01 X45.1647 Y20.1969 
G01 X45.1969 Y20.1647 
G01 X45.2143 Y20.1227 
G01 X45.2143 Y19.6893 
G01 X45.2397 Y19.6893 
G00 Z2.5400 
G00 X44.0857 Y19.6893 
G01 Z-0.1778 F254.00 
G01 X44.0857 Y20.1227 F508.00 
G01 X44.1031 Y20.1647 
G01 X44.1353 Y20.1969 
G01 X44.1773 Y20.2143 
G01 X44.3107 Y20.2143 
G01 X44.3107 Y20.2397 
G01 X44.1816 Y20.2397 
G01 X44.1461 Y20.2302 
G01 X44.1142 Y20.2118 
G01 X44.0882 Y20.1858 
G01 X44.0698 Y20.1539 
G01 X44.0603 Y20.1184 
G01 X44.0603 Y19.6893 
G01 X44.0857 Y19.6893 
G00 Z2.5400 
G00 X39.2379 Y20.7191 
G01 Z-0.1778 F254.00 
G01 X39.2335 Y20.7248 F508.00 
G01 X39.2108 Y20.7475 
G01 X39.2046 Y20.7625 
G01 X39.1947 Y20.7754 
G01 X39.1864 Y20.8065 
G01 X39.1740 Y20.8362 
G01 X39.1740 Y20.8524 
G01 X39.1698 Y20.8681 
G01 X39.1740 Y20.9000 
G01 X39.1740 Y20.9322 
G01 X39.1803 Y20.9472 
G01 X39.1824 Y20.9633 
G01 X39.1985 Y20.9912 
G01 X39.2108 Y21.0209 
G01 X39.2223 Y21.0324 
G01 X39.2302 Y21.0461 
G01 X39.2397 Y21.0816 
G01 X39.2397 Y21.5107 
G01 X39.2143 Y21.5107 
G01 X39.2143 Y21.0773 
G01 X39.1969 Y21.0353 
G01 X39.1647 Y21.0031 
G01 X39.1227 Y20.9857 
G01 X38.1773 Y20.9857 
G01 X38.1353 Y21.0031 
G01 X38.1031 Y21.0353 
G01 X38.0857 Y21.0773 
G01 X38.0857 Y21.5107 
G01 X38.0603 Y21.5107 
G01 X38.0603 Y21.0816 
G01 X38.0698 Y21.0461 
G01 X38.0777 Y21.0324 
G01 X38.0892 Y21.0209 
G01 X38.1015 Y20.9912 
G01 X38.1176 Y20.9633 
G01 X38.1197 Y20.9472 
G01 X38.1260 Y20.9322 
G01 X38.1260 Y20.9000 
G01 X38.1302 Y20.8681 
G01 X38.1260 Y20.8524 
G01 X38.1260 Y20.8362 
G01 X38.1136 Y20.8065 
G01 X38.1053 Y20.7754 
G01 X38.0954 Y20.7625 
G01 X38.0892 Y20.7475 
G01 X38.0665 Y20.7248 
G01 X38.0621 Y20.7191 
G01 X39.2379 Y20.7191 
G00 Z2.5400 
G00 X39.2397 Y22.1893 
G01 Z-0.1778 F254.00 
G01 X39.2397 Y22.6184 F508.00 
G01 X39.2302 Y22.6539 
G01 X39.2118 Y22.6858 
G01 X39.1858 Y22.7118 
G01 X39.1539 Y22.7302 
G01 X39.1184 Y22.7397 
G01 X38.9893 Y22.7397 
G01 X38.9893 Y22.7143 
G01 X39.1227 Y22.7143 
G01 X39.1647 Y22.6969 
G01 X39.1969 Y22.6647 
G01 X39.2143 Y22.6227 
G01 X39.2143 Y22.1893 
G01 X39.2397 Y22.1893 
G00 Z2.5400 
G00 X38.0857 Y22.1893 
G01 Z-0.1778 F254.00 
G01 X38.0857 Y22.6227 F508.00 
G01 X38.1031 Y22.6647 
G01 X38.1353 Y22.6969 
G01 X38.1773 Y22.7143 
G01 X38.3107 Y22.7143 
G01 X38.3107 Y22.7397 
G01 X38.1816 Y22.7397 
G01 X38.1461 Y22.7302 
G01 X38.1142 Y22.7118 
G01 X38.0882 Y22.6858 
G01 X38.0698 Y22.6539 
G01 X38.0603 Y22.6184 
G01 X38.0603 Y22.1893 
G01 X38.0857 Y22.1893 
G00 Z2.5400 
G00 X33.2379 Y23.2191 
G01 Z-0.1778 F254.00 
G01 X33.2335 Y23.2248 F508.00 
G01 X33.2108 Y23.2475 
G01 X33.2046 Y23.2625 
G01 X33.1947 Y23.2754 
G01 X33.1864 Y23.3065 
G01 X33.1740 Y23.3362 
G01 X33.1740 Y23.3524 
G01 X33.1698 Y23.3681 
G01 X33.1740 Y23.4000 
G01 X33.1740 Y23.4322 
G01 X33.1803 Y23.4472 
G01 X33.1824 Y23.4633 
G01 X33.1985 Y23.4912 
G01 X33.2108 Y23.5209 
G01 X33.2223 Y23.5324 
G01 X33.2302 Y23.5461 
G01 X33.2397 Y23.5816 
G01 X33.2397 Y24.0107 
G01 X33.2143 Y24.0107 
G01 X33.2143 Y23.5773 
G01 X33.1969 Y23.5353 
G01 X33.1647 Y23.5031 
G01 X33.1227 Y23.4857 
G01 X32.1773 Y23.4857 
G01 X32.1353 Y23.5031 
G01 X32.1031 Y23.5353 
G01 X32.0857 Y23.5773 
G01 X32.0857 Y24.0107 
G01 X32.0603 Y24.0107 
G01 X32.0603 Y23.5816 
G01 X32.0698 Y23.5461 
G01 X32.0777 Y23.5324 
G01 X32.0892 Y23.5209 
G01 X32.1015 Y23.4912 
G01 X32.1176 Y23.4633 
G01 X32.1197 Y23.4472 
G01 X32.1260 Y23.4322 
G01 X32.1260 Y23.4000 
G01 X32.1302 Y23.3681 
G01 X32.1260 Y23.3524 
G01 X32.1260 Y23.3362 
G01 X32.1136 Y23.3065 
G01 X32.1053 Y23.2754 
G01 X32.0954 Y23.2625 
G01 X32.0892 Y23.2475 
G01 X32.0665 Y23.2248 
G01 X32.0621 Y23.2191 
G01 X33.2379 Y23.2191 
G00 Z2.5400 
G00 X33.2397 Y24.6893 
G01 Z-0.1778 F254.00 
G01 X33.2397 Y25.1184 F508.00 
G01 X33.2302 Y25.1539 
G01 X33.2118 Y25.1858 
G01 X33.1858 Y25.2118 
G01 X33.1539 Y25.2302 
G01 X33.1184 Y25.2397 
G01 X32.9893 Y25.2397 
G01 X32.9893 Y25.2143 
G01 X33.1227 Y25.2143 
G01 X33.1647 Y25.1969 
G01 X33.1969 Y25.1647 
G01 X33.2143 Y25.1227 
G01 X33.2143 Y24.6893 
G01 X33.2397 Y24.6893 
G00 Z2.5400 
G00 X32.0857 Y24.6893 
G01 Z-0.1778 F254.00 
G01 X32.0857 Y25.1227 F508.00 
G01 X32.1031 Y25.1647 
G01 X32.1353 Y25.1969 
G01 X32.1773 Y25.2143 
G01 X32.3107 Y25.2143 
G01 X32.3107 Y25.2397 
G01 X32.1816 Y25.2397 
G01 X32.1461 Y25.2302 
G01 X32.1142 Y25.2118 
G01 X32.0882 Y25.1858 
G01 X32.0698 Y25.1539 
G01 X32.0603 Y25.1184 
G01 X32.0603 Y24.6893 
G01 X32.0857 Y24.6893 
G00 Z2.5400 
G00 X27.2118 Y26.0142 
G01 Z-0.1778 F254.00 
G01 X27.2302 Y26.0461 F508.00 
G01 X27.2397 Y26.0816 
G01 X27.2397 Y26.5107 
G01 X27.2143 Y26.5107 
G01 X27.2143 Y26.0773 
G01 X27.1969 Y26.0353 
G01 X27.1647 Y26.0031 
G01 X27.1227 Y25.9857 
G01 X26.9893 Y25.9857 
G01 X26.9893 Y25.9603 
G01 X27.1184 Y25.9603 
G01 X27.1539 Y25.9698 
G01 X27.1858 Y25.9882 
G01 X27.2118 Y26.0142 
G00 Z2.5400 
G00 X26.3107 Y25.9857 
G01 Z-0.1778 F254.00 
G01 X26.1773 Y25.9857 F508.00 
G01 X26.1353 Y26.0031 
G01 X26.1031 Y26.0353 
G01 X26.0857 Y26.0773 
G01 X26.0857 Y26.5107 
G01 X26.0603 Y26.5107 
G01 X26.0603 Y26.0816 
G01 X26.0698 Y26.0461 
G01 X26.0882 Y26.0142 
G01 X26.1142 Y25.9882 
G01 X26.1461 Y25.9698 
G01 X26.1816 Y25.9603 
G01 X26.3107 Y25.9603 
G01 X26.3107 Y25.9857 
G00 Z2.5400 
G00 X26.0857 Y27.1893 
G01 Z-0.1778 F254.00 
G01 X26.0857 Y27.6227 F508.00 
G01 X26.1031 Y27.6647 
G01 X26.1353 Y27.6969 
G01 X26.1773 Y27.7143 
G01 X26.3107 Y27.7143 
G01 X26.3107 Y27.7397 
G01 X26.1816 Y27.7397 
G01 X26.1461 Y27.7302 
G01 X26.1142 Y27.7118 
G01 X26.0882 Y27.6858 
G01 X26.0698 Y27.6539 
G01 X26.0603 Y27.6184 
G01 X26.0603 Y27.1893 
G01 X26.0857 Y27.1893 
G00 Z2.5400 
G00 X27.2143 Y27.1893 
G01 Z-0.1778 F254.00 
G01 X27.2397 Y27.1893 F508.00 
G01 X27.2397 Y27.6184 
G01 X27.2302 Y27.6539 
G01 X27.2118 Y27.6858 
G01 X27.1858 Y27.7118 
G01 X27.1539 Y27.7302 
G01 X27.1184 Y27.7397 
G01 X26.9893 Y27.7397 
G01 X26.9893 Y27.7143 
G01 X27.1227 Y27.7143 
G01 X27.1647 Y27.6969 
G01 X27.1969 Y27.6647 
G01 X27.2143 Y27.6227 
G01 X27.2143 Y27.1893 
G00 Z2.5400 
G00 X17.9877 Y33.5218 
G01 Z-0.1778 F254.00 
G01 X18.4782 Y34.0123 F508.00 
G01 X18.7437 Y34.6532 
G01 X18.7437 Y35.3468 
G01 X18.4782 Y35.9877 
G01 X17.9877 Y36.4782 
G01 X17.3468 Y36.7437 
G01 X16.6532 Y36.7437 
G01 X16.0123 Y36.4782 
G01 X15.5218 Y35.9877 
G01 X15.2563 Y35.3468 
G01 X15.2563 Y34.6532 
G01 X15.5218 Y34.0123 
G01 X16.0123 Y33.5218 
G01 X16.6532 Y33.2563 
G01 X17.3468 Y33.2563 
G01 X17.9877 Y33.5218 
G00 Z2.5400 
G00 X15.1858 Y12.7118 
G01 Z-0.1778 F254.00 
G01 X15.1539 Y12.7302 F508.00 
G01 X15.1184 Y12.7397 
G01 X14.9893 Y12.7397 
G01 X14.9893 Y12.7143 
G01 X15.1227 Y12.7143 
G01 X15.1647 Y12.6969 
G01 X15.1969 Y12.6647 
G01 X15.2143 Y12.6227 
G01 X15.2143 Y12.1893 
G01 X15.2397 Y12.1893 
G01 X15.2397 Y12.6184 
G01 X15.2302 Y12.6539 
G01 X15.2118 Y12.6858 
G01 X15.1858 Y12.7118 
G00 Z2.5400 
G00 X14.3107 Y12.7143 
G01 Z-0.1778 F254.00 
G01 X14.3107 Y12.7397 F508.00 
G01 X14.1816 Y12.7397 
G01 X14.1461 Y12.7302 
G01 X14.1142 Y12.7118 
G01 X14.0882 Y12.6858 
G01 X14.0698 Y12.6539 
G01 X14.0603 Y12.6184 
G01 X14.0603 Y12.1893 
G01 X14.0857 Y12.1893 
G01 X14.0857 Y12.6227 
G01 X14.1031 Y12.6647 
G01 X14.1353 Y12.6969 
G01 X14.1773 Y12.7143 
G01 X14.3107 Y12.7143 
G00 Z2.5400 
G00 X14.0857 Y11.5107 
G01 Z-0.1778 F254.00 
G01 X14.0603 Y11.5107 F508.00 
G01 X14.0603 Y11.0816 
G01 X14.0698 Y11.0461 
G01 X14.0882 Y11.0142 
G01 X14.1142 Y10.9882 
G01 X14.1461 Y10.9698 
G01 X14.1816 Y10.9603 
G01 X14.3107 Y10.9603 
G01 X14.3107 Y10.9857 
G01 X14.1773 Y10.9857 
G01 X14.1353 Y11.0031 
G01 X14.1031 Y11.0353 
G01 X14.0857 Y11.0773 
G01 X14.0857 Y11.5107 
G00 Z2.5400 
G00 X15.2143 Y11.5107 
G01 Z-0.1778 F254.00 
G01 X15.2143 Y11.0773 F508.00 
G01 X15.1969 Y11.0353 
G01 X15.1647 Y11.0031 
G01 X15.1227 Y10.9857 
G01 X14.9893 Y10.9857 
G01 X14.9893 Y10.9603 
G01 X15.1184 Y10.9603 
G01 X15.1539 Y10.9698 
G01 X15.1858 Y10.9882 
G01 X15.2118 Y11.0142 
G01 X15.2302 Y11.0461 
G01 X15.2397 Y11.0816 
G01 X15.2397 Y11.5107 
G01 X15.2143 Y11.5107 
G00 Z2.5400 
G00 X20.0882 Y10.1858 
G01 Z-0.1778 F254.00 
G01 X20.0698 Y10.1539 F508.00 
G01 X20.0603 Y10.1184 
G01 X20.0603 Y9.6893 
G01 X20.0857 Y9.6893 
G01 X20.0857 Y10.1227 
G01 X20.1031 Y10.1647 
G01 X20.1353 Y10.1969 
G01 X20.1773 Y10.2143 
G01 X20.3107 Y10.2143 
G01 X20.3107 Y10.2397 
G01 X20.1816 Y10.2397 
G01 X20.1461 Y10.2302 
G01 X20.1142 Y10.2118 
G01 X20.0882 Y10.1858 
G00 Z2.5400 
G00 X20.9893 Y10.2143 
G01 Z-0.1778 F254.00 
G01 X21.1227 Y10.2143 F508.00 
G01 X21.1647 Y10.1969 
G01 X21.1969 Y10.1647 
G01 X21.2143 Y10.1227 
G01 X21.2143 Y9.6893 
G01 X21.2397 Y9.6893 
G01 X21.2397 Y10.1184 
G01 X21.2302 Y10.1539 
G01 X21.2118 Y10.1858 
G01 X21.1858 Y10.2118 
G01 X21.1539 Y10.2302 
G01 X21.1184 Y10.2397 
G01 X20.9893 Y10.2397 
G01 X20.9893 Y10.2143 
G00 Z2.5400 
G00 X21.2143 Y9.0107 
G01 Z-0.1778 F254.00 
G01 X21.2143 Y8.5773 F508.00 
G01 X21.1969 Y8.5353 
G01 X21.1647 Y8.5031 
G01 X21.1227 Y8.4857 
G01 X20.9893 Y8.4857 
G01 X20.9893 Y8.4603 
G01 X21.1184 Y8.4603 
G01 X21.1539 Y8.4698 
G01 X21.1858 Y8.4882 
G01 X21.2118 Y8.5142 
G01 X21.2302 Y8.5461 
G01 X21.2397 Y8.5816 
G01 X21.2397 Y9.0107 
G01 X21.2143 Y9.0107 
G00 Z2.5400 
G00 X20.0857 Y9.0107 
G01 Z-0.1778 F254.00 
G01 X20.0603 Y9.0107 F508.00 
G01 X20.0603 Y8.5816 
G01 X20.0698 Y8.5461 
G01 X20.0882 Y8.5142 
G01 X20.1142 Y8.4882 
G01 X20.1461 Y8.4698 
G01 X20.1816 Y8.4603 
G01 X20.3107 Y8.4603 
G01 X20.3107 Y8.4857 
G01 X20.1773 Y8.4857 
G01 X20.1353 Y8.5031 
G01 X20.1031 Y8.5353 
G01 X20.0857 Y8.5773 
G01 X20.0857 Y9.0107 
G00 Z2.5400 
G00 X17.9877 Y4.4782 
G01 Z-0.1778 F254.00 
G01 X17.3468 Y4.7437 F508.00 
G01 X16.6532 Y4.7437 
G01 X16.0123 Y4.4782 
G01 X15.5218 Y3.9877 
G01 X15.2563 Y3.3468 
G01 X15.2563 Y2.6532 
G01 X15.5218 Y2.0123 
G01 X16.0123 Y1.5218 
G01 X16.6532 Y1.2563 
G01 X17.3468 Y1.2563 
G01 X17.9877 Y1.5218 
G01 X18.4782 Y2.0123 
G01 X18.7437 Y2.6532 
G01 X18.7437 Y3.3468 
G01 X18.4782 Y3.9877 
G01 X17.9877 Y4.4782 
G00 Z2.5400 
G00 X26.1142 Y5.9882 
G01 Z-0.1778 F254.00 
G01 X26.1461 Y5.9698 F508.00 
G01 X26.1816 Y5.9603 
G01 X26.3107 Y5.9603 
G01 X26.3107 Y5.9857 
G01 X26.1773 Y5.9857 
G01 X26.1353 Y6.0031 
G01 X26.1031 Y6.0353 
G01 X26.0857 Y6.0773 
G01 X26.0857 Y6.5107 
G01 X26.0603 Y6.5107 
G01 X26.0603 Y6.0816 
G01 X26.0698 Y6.0461 
G01 X26.0882 Y6.0142 
G01 X26.1142 Y5.9882 
G00 Z2.5400 
G00 X26.9893 Y5.9857 
G01 Z-0.1778 F254.00 
G01 X26.9893 Y5.9603 F508.00 
G01 X27.1184 Y5.9603 
G01 X27.1539 Y5.9698 
G01 X27.1858 Y5.9882 
G01 X27.2118 Y6.0142 
G01 X27.2302 Y6.0461 
G01 X27.2397 Y6.0816 
G01 X27.2397 Y6.5107 
G01 X27.2143 Y6.5107 
G01 X27.2143 Y6.0773 
G01 X27.1969 Y6.0353 
G01 X27.1647 Y6.0031 
G01 X27.1227 Y5.9857 
G01 X26.9893 Y5.9857 
G00 Z2.5400 
G00 X27.2143 Y7.1893 
G01 Z-0.1778 F254.00 
G01 X27.2397 Y7.1893 F508.00 
G01 X27.2397 Y7.6184 
G01 X27.2302 Y7.6539 
G01 X27.2118 Y7.6858 
G01 X27.1858 Y7.7118 
G01 X27.1539 Y7.7302 
G01 X27.1184 Y7.7397 
G01 X26.9893 Y7.7397 
G01 X26.9893 Y7.7143 
G01 X27.1227 Y7.7143 
G01 X27.1647 Y7.6969 
G01 X27.1969 Y7.6647 
G01 X27.2143 Y7.6227 
G01 X27.2143 Y7.1893 
G00 Z2.5400 
G00 X26.0857 Y7.1893 
G01 Z-0.1778 F254.00 
G01 X26.0857 Y7.6227 F508.00 
G01 X26.1031 Y7.6647 
G01 X26.1353 Y7.6969 
G01 X26.1773 Y7.7143 
G01 X26.3107 Y7.7143 
G01 X26.3107 Y7.7397 
G01 X26.1816 Y7.7397 
G01 X26.1461 Y7.7302 
G01 X26.1142 Y7.7118 
G01 X26.0882 Y7.6858 
G01 X26.0698 Y7.6539 
G01 X26.0603 Y7.6184 
G01 X26.0603 Y7.1893 
G01 X26.0857 Y7.1893 
G00 Z2.5400 
G00 X32.0882 Y5.1858 
G01 Z-0.1778 F254.00 
G01 X32.0698 Y5.1539 F508.00 
G01 X32.0603 Y5.1184 
G01 X32.0603 Y4.6893 
G01 X32.0857 Y4.6893 
G01 X32.0857 Y5.1227 
G01 X32.1031 Y5.1647 
G01 X32.1353 Y5.1969 
G01 X32.1773 Y5.2143 
G01 X32.3107 Y5.2143 
G01 X32.3107 Y5.2397 
G01 X32.1816 Y5.2397 
G01 X32.1461 Y5.2302 
G01 X32.1142 Y5.2118 
G01 X32.0882 Y5.1858 
G00 Z2.5400 
G00 X32.9893 Y5.2143 
G01 Z-0.1778 F254.00 
G01 X33.1227 Y5.2143 F508.00 
G01 X33.1647 Y5.1969 
G01 X33.1969 Y5.1647 
G01 X33.2143 Y5.1227 
G01 X33.2143 Y4.6893 
G01 X33.2397 Y4.6893 
G01 X33.2397 Y5.1184 
G01 X33.2302 Y5.1539 
G01 X33.2118 Y5.1858 
G01 X33.1858 Y5.2118 
G01 X33.1539 Y5.2302 
G01 X33.1184 Y5.2397 
G01 X32.9893 Y5.2397 
G01 X32.9893 Y5.2143 
G00 Z2.5400 
G00 X33.2143 Y4.0107 
G01 Z-0.1778 F254.00 
G01 X33.2143 Y3.5773 F508.00 
G01 X33.1969 Y3.5353 
G01 X33.1647 Y3.5031 
G01 X33.1227 Y3.4857 
G01 X32.9893 Y3.4857 
G01 X32.9893 Y3.4603 
G01 X33.1184 Y3.4603 
G01 X33.1539 Y3.4698 
G01 X33.1858 Y3.4882 
G01 X33.2118 Y3.5142 
G01 X33.2302 Y3.5461 
G01 X33.2397 Y3.5816 
G01 X33.2397 Y4.0107 
G01 X33.2143 Y4.0107 
G00 Z2.5400 
G00 X32.0857 Y4.0107 
G01 Z-0.1778 F254.00 
G01 X32.0603 Y4.0107 F508.00 
G01 X32.0603 Y3.5816 
G01 X32.0698 Y3.5461 
G01 X32.0882 Y3.5142 
G01 X32.1142 Y3.4882 
G01 X32.1461 Y3.4698 
G01 X32.1816 Y3.4603 
G01 X32.3107 Y3.4603 
G01 X32.3107 Y3.4857 
G01 X32.1773 Y3.4857 
G01 X32.1353 Y3.5031 
G01 X32.1031 Y3.5353 
G01 X32.0857 Y3.5773 
G01 X32.0857 Y4.0107 
G00 Z2.5400 
G00 X56.0603 Y4.0107 
G01 Z-0.1778 F254.00 
G01 X56.0603 Y3.5816 F508.00 
G01 X56.0698 Y3.5461 
G01 X56.0882 Y3.5142 
G01 X56.1142 Y3.4882 
G01 X56.1461 Y3.4698 
G01 X56.1816 Y3.4603 
G01 X56.3107 Y3.4603 
G01 X56.3107 Y3.4857 
G01 X56.1773 Y3.4857 
G01 X56.1353 Y3.5031 
G01 X56.1031 Y3.5353 
G01 X56.0857 Y3.5773 
G01 X56.0857 Y4.0107 
G01 X56.0603 Y4.0107 
G00 Z2.5400 
G00 X56.0603 Y4.6893 
G01 Z-0.1778 F254.00 
G01 X56.0857 Y4.6893 F508.00 
G01 X56.0857 Y5.1227 
G01 X56.1031 Y5.1647 
G01 X56.1353 Y5.1969 
G01 X56.1773 Y5.2143 
G01 X56.3107 Y5.2143 
G01 X56.3107 Y5.2397 
G01 X56.1816 Y5.2397 
G01 X56.1461 Y5.2302 
G01 X56.1142 Y5.2118 
G01 X56.0882 Y5.1858 
G01 X56.0698 Y5.1539 
G01 X56.0603 Y5.1184 
G01 X56.0603 Y4.6893 
G00 Z2.5400 
G00 X57.2143 Y4.6893 
G01 Z-0.1778 F254.00 
G01 X57.2397 Y4.6893 F508.00 
G01 X57.2397 Y5.1184 
G01 X57.2302 Y5.1539 
G01 X57.2118 Y5.1858 
G01 X57.1858 Y5.2118 
G01 X57.1539 Y5.2302 
G01 X57.1184 Y5.2397 
G01 X56.9893 Y5.2397 
G01 X56.9893 Y5.2143 
G01 X57.1227 Y5.2143 
G01 X57.1647 Y5.1969 
G01 X57.1969 Y5.1647 
G01 X57.2143 Y5.1227 
G01 X57.2143 Y4.6893 
G00 Z2.5400 
G00 X57.2143 Y4.0107 
G01 Z-0.1778 F254.00 
G01 X57.2143 Y3.5773 F508.00 
G01 X57.1969 Y3.5353 
G01 X57.1647 Y3.5031 
G01 X57.1227 Y3.4857 
G01 X56.9893 Y3.4857 
G01 X56.9893 Y3.4603 
G01 X57.1184 Y3.4603 
G01 X57.1539 Y3.4698 
G01 X57.1858 Y3.4882 
G01 X57.2118 Y3.5142 
G01 X57.2302 Y3.5461 
G01 X57.2397 Y3.5816 
G01 X57.2397 Y4.0107 
G01 X57.2143 Y4.0107 
G00 Z2.5400 
G00 X60.4809 Y8.3967 
G01 Z-0.1778 F254.00 
G01 X60.4809 Y8.4193 F508.00 
G01 X60.4696 Y8.4080 
G01 X60.4809 Y8.3967 
G00 Z2.5400 
G00 X46.2877 Y33.5218 
G01 Z-0.1778 F254.00 
G01 X46.7782 Y34.0123 F508.00 
G01 X47.0437 Y34.6532 
G01 X47.0437 Y35.3468 
G01 X46.7782 Y35.9877 
G01 X46.2877 Y36.4782 
G01 X45.6468 Y36.7437 
G01 X44.9532 Y36.7437 
G01 X44.3123 Y36.4782 
G01 X43.8218 Y35.9877 
G01 X43.5563 Y35.3468 
G01 X43.5563 Y34.6532 
G01 X43.8218 Y34.0123 
G01 X44.3123 Y33.5218 
G01 X44.9532 Y33.2563 
G01 X45.6468 Y33.2563 
G01 X46.2877 Y33.5218 
G00 Z2.5400 
G00 X0.3403 Y0.4089 
G01 Z-0.1778 F254.00 
G01 X0.2918 Y0.4928 F508.00 
G01 X0.2667 Y0.5865 
G01 X0.2667 Y25.3873 
G01 X0.2918 Y25.4810 
G01 X0.3403 Y25.5650 
G01 X0.4089 Y25.6335 
G01 X0.4928 Y25.6820 
G01 X0.5676 Y25.7020 
G01 X0.5865 Y25.7071 
G01 X0.6539 Y25.7071 
G01 X0.6539 Y32.8929 
G01 X0.5865 Y32.8929 
G01 X0.4928 Y32.9180 
G01 X0.4089 Y32.9665 
G01 X0.3403 Y33.0350 
G01 X0.2918 Y33.1190 
G01 X0.2678 Y33.2087 
G01 X0.2667 Y33.2127 
G01 X0.2667 Y37.4135 
G01 X0.2918 Y37.5072 
G01 X0.3403 Y37.5911 
G01 X0.4089 Y37.6597 
G01 X0.4928 Y37.7082 
G01 X0.5865 Y37.7333 
G01 X61.7135 Y37.7333 
G01 X61.8072 Y37.7082 
G01 X61.8911 Y37.6597 
G01 X61.9597 Y37.5911 
G01 X62.0082 Y37.5072 
G01 X62.0333 Y37.4135 
G01 X62.0333 Y21.0039 
G01 X62.0365 Y20.9797 
G01 X62.0333 Y20.9556 
G01 X62.0333 Y20.9312 
G01 X62.0270 Y20.9077 
G01 X62.0238 Y20.8836 
G01 X62.0145 Y20.8611 
G01 X62.0082 Y20.8376 
G01 X61.9960 Y20.8165 
G01 X61.9867 Y20.7940 
G01 X61.9719 Y20.7747 
G01 X61.9597 Y20.7536 
G01 X61.9425 Y20.7364 
G01 X61.9277 Y20.7170 
G01 X61.9084 Y20.7022 
G01 X61.8911 Y20.6850 
G01 X61.8701 Y20.6728 
G01 X61.8507 Y20.6580 
G01 X61.8282 Y20.6487 
G01 X61.8072 Y20.6365 
G01 X61.7836 Y20.6302 
G01 X61.7611 Y20.6209 
G01 X61.7370 Y20.6177 
G01 X61.7135 Y20.6114 
G01 X61.7065 Y20.6114 
G01 X61.7065 Y20.4450 
G01 X61.6768 Y20.2575 
G01 X61.6181 Y20.0769 
G01 X61.5319 Y19.9077 
G01 X61.4203 Y19.7540 
G01 X61.2860 Y19.6197 
G01 X61.1323 Y19.5081 
G01 X60.9631 Y19.4219 
G01 X60.7825 Y19.3632 
G01 X60.5950 Y19.3335 
G01 X60.5730 Y19.3335 
G01 X60.5742 Y19.3256 
G01 X60.5737 Y19.3208 
G01 X60.5744 Y19.3159 
G01 X60.5687 Y19.2726 
G01 X60.5641 Y19.2292 
G01 X60.5624 Y19.2246 
G01 X60.5617 Y19.2198 
G01 X60.5562 Y19.2065 
G01 X60.5950 Y19.2065 
G01 X60.7825 Y19.1768 
G01 X60.9631 Y19.1181 
G01 X61.1323 Y19.0319 
G01 X61.2860 Y18.9203 
G01 X61.4203 Y18.7860 
G01 X61.5319 Y18.6323 
G01 X61.6181 Y18.4631 
G01 X61.6768 Y18.2825 
G01 X61.7065 Y18.0950 
G01 X61.7065 Y17.9050 
G01 X61.6768 Y17.7175 
G01 X61.6181 Y17.5369 
G01 X61.5319 Y17.3677 
G01 X61.4203 Y17.2140 
G01 X61.2860 Y17.0797 
G01 X61.1323 Y16.9681 
G01 X60.9631 Y16.8819 
G01 X60.7825 Y16.8232 
G01 X60.5950 Y16.7935 
G01 X60.5562 Y16.7935 
G01 X60.5617 Y16.7802 
G01 X60.5624 Y16.7754 
G01 X60.5641 Y16.7708 
G01 X60.5687 Y16.7274 
G01 X60.5744 Y16.6841 
G01 X60.5737 Y16.6792 
G01 X60.5742 Y16.6743 
G01 X60.5730 Y16.6665 
G01 X60.5950 Y16.6665 
G01 X60.7825 Y16.6368 
G01 X60.9631 Y16.5781 
G01 X61.1323 Y16.4919 
G01 X61.2860 Y16.3803 
G01 X61.4203 Y16.2460 
G01 X61.5319 Y16.0923 
G01 X61.6181 Y15.9231 
G01 X61.6768 Y15.7425 
G01 X61.7065 Y15.5550 
G01 X61.7065 Y15.3886 
G01 X61.7135 Y15.3886 
G01 X61.7370 Y15.3823 
G01 X61.7611 Y15.3791 
G01 X61.7836 Y15.3698 
G01 X61.8072 Y15.3635 
G01 X61.8282 Y15.3513 
G01 X61.8507 Y15.3420 
G01 X61.8701 Y15.3272 
G01 X61.8911 Y15.3150 
G01 X61.9084 Y15.2978 
G01 X61.9277 Y15.2829 
G01 X61.9425 Y15.2636 
G01 X61.9597 Y15.2464 
G01 X61.9719 Y15.2253 
G01 X61.9867 Y15.2060 
G01 X61.9960 Y15.1835 
G01 X62.0082 Y15.1624 
G01 X62.0145 Y15.1389 
G01 X62.0238 Y15.1164 
G01 X62.0270 Y15.0923 
G01 X62.0333 Y15.0688 
G01 X62.0333 Y15.0444 
G01 X62.0365 Y15.0203 
G01 X62.0333 Y14.9961 
G01 X62.0333 Y0.5865 
G01 X62.0082 Y0.4928 
G01 X61.9597 Y0.4089 
G01 X61.8911 Y0.3403 
G01 X61.8072 Y0.2918 
G01 X61.7135 Y0.2667 
G01 X0.6835 Y0.2667 
G01 X0.5865 Y0.2667 
G01 X0.4928 Y0.2918 
G01 X0.4089 Y0.3403 
G01 X0.3403 Y0.4089 
G00 Z2.5400 
G00 X16.0842 Y1.6294 
G01 Z-0.1778 F254.00 
G01 X16.6784 Y1.3833 F508.00 
G01 X17.3216 Y1.3833 
G01 X17.9158 Y1.6294 
G01 X18.3706 Y2.0842 
G01 X18.6167 Y2.6784 
G01 X18.6167 Y3.3216 
G01 X18.3706 Y3.9158 
G01 X17.9158 Y4.3706 
G01 X17.3216 Y4.6167 
G01 X16.6784 Y4.6167 
G01 X16.0842 Y4.3706 
G01 X15.6294 Y3.9158 
G01 X15.3833 Y3.3216 
G01 X15.3833 Y2.6784 
G01 X15.6294 Y2.0842 
G01 X16.0842 Y1.6294 
G00 Z2.5400 
G00 X17.7310 Y17.7413 
G01 Z-0.1778 F254.00 
G01 X18.3864 Y17.7413 F508.00 
G01 X16.3738 Y19.7539 
G01 X15.6694 Y19.7539 
G01 X15.7853 Y19.6870 
G01 X15.8870 Y19.5853 
G01 X17.7310 Y17.7413 
G00 Z2.5400 
G00 X18.6413 Y17.4864 
G01 Z-0.1778 F254.00 
G01 X18.6413 Y17.2961 F508.00 
G01 X18.8806 Y17.2961 
G01 X18.7647 Y17.3630 
G01 X18.6630 Y17.4647 
G01 X18.6413 Y17.4864 
G00 Z2.5400 
G00 X20.2530 Y18.3461 
G01 Z-0.1778 F254.00 
G01 X21.0470 Y18.3461 F508.00 
G01 X21.0470 Y18.3587 
G01 X20.2530 Y18.3587 
G01 X20.2530 Y18.3461 
G00 Z2.5400 
G00 X21.6694 Y17.2539 
G01 Z-0.1778 F254.00 
G01 X21.7853 Y17.1870 F508.00 
G01 X23.7310 Y15.2413 
G01 X24.3864 Y15.2413 
G01 X22.3738 Y17.2539 
G01 X21.6694 Y17.2539 
G00 Z2.5400 
G00 X24.6413 Y14.9864 
G01 Z-0.1778 F254.00 
G01 X24.6413 Y14.7961 F508.00 
G01 X24.8806 Y14.7961 
G01 X24.7647 Y14.8630 
G01 X24.6630 Y14.9647 
G01 X24.6413 Y14.9864 
G00 Z2.5400 
G00 X26.2530 Y15.8461 
G01 Z-0.1778 F254.00 
G01 X27.0470 Y15.8461 F508.00 
G01 X27.0470 Y15.8587 
G01 X26.2530 Y15.8587 
G01 X26.2530 Y15.8461 
G00 Z2.5400 
G00 X27.6694 Y14.7539 
G01 Z-0.1778 F254.00 
G01 X27.7853 Y14.6870 F508.00 
G01 X29.7310 Y12.7413 
G01 X30.3864 Y12.7413 
G01 X28.3738 Y14.7539 
G01 X27.6694 Y14.7539 
G00 Z2.5400 
G00 X30.6413 Y12.4864 
G01 Z-0.1778 F254.00 
G01 X30.6413 Y12.2961 F508.00 
G01 X30.8806 Y12.2961 
G01 X30.7647 Y12.3630 
G01 X30.6630 Y12.4647 
G01 X30.6413 Y12.4864 
G00 Z2.5400 
G00 X32.2530 Y13.3461 
G01 Z-0.1778 F254.00 
G01 X33.0470 Y13.3461 F508.00 
G01 X33.0470 Y13.3587 
G01 X32.2530 Y13.3587 
G01 X32.2530 Y13.3461 
G00 Z2.5400 
G00 X33.6694 Y12.2539 
G01 Z-0.1778 F254.00 
G01 X33.7853 Y12.1870 F508.00 
G01 X35.7310 Y10.2413 
G01 X36.3864 Y10.2413 
G01 X34.3738 Y12.2539 
G01 X33.6694 Y12.2539 
G00 Z2.5400 
G00 X33.6694 Y22.2539 
G01 Z-0.1778 F254.00 
G01 X33.7853 Y22.1870 F508.00 
G01 X33.8870 Y22.0853 
G01 X35.7310 Y20.2413 
G01 X36.3864 Y20.2413 
G01 X34.3738 Y22.2539 
G01 X33.6694 Y22.2539 
G00 Z2.5400 
G00 X33.0470 Y23.3461 
G01 Z-0.1778 F254.00 
G01 X33.0470 Y23.3587 F508.00 
G01 X32.2530 Y23.3587 
G01 X32.2530 Y23.3461 
G01 X33.0470 Y23.3461 
G00 Z2.5400 
G00 X30.9806 Y22.2961 
G01 Z-0.1778 F254.00 
G01 X30.8647 Y22.3630 F508.00 
G01 X30.7630 Y22.4647 
G01 X30.6818 Y22.5459 
G01 X30.6413 Y22.5054 
G01 X30.6413 Y22.2961 
G01 X30.9806 Y22.2961 
G00 Z2.5400 
G00 X36.6413 Y19.9864 
G01 Z-0.1778 F254.00 
G01 X36.6413 Y19.7961 F508.00 
G01 X36.8806 Y19.7961 
G01 X36.7647 Y19.8630 
G01 X36.6630 Y19.9647 
G01 X36.6413 Y19.9864 
G00 Z2.5400 
G00 X38.2530 Y20.8461 
G01 Z-0.1778 F254.00 
G01 X39.0470 Y20.8461 F508.00 
G01 X39.0470 Y20.8587 
G01 X38.2530 Y20.8587 
G01 X38.2530 Y20.8461 
G00 Z2.5400 
G00 X39.6694 Y19.7539 
G01 Z-0.1778 F254.00 
G01 X39.7853 Y19.6870 F508.00 
G01 X39.8870 Y19.5853 
G01 X41.7310 Y17.7413 
G01 X42.3864 Y17.7413 
G01 X40.3738 Y19.7539 
G01 X39.6694 Y19.7539 
G00 Z2.5400 
G00 X42.6413 Y17.4864 
G01 Z-0.1778 F254.00 
G01 X42.6413 Y17.2961 F508.00 
G01 X42.8806 Y17.2961 
G01 X42.7647 Y17.3630 
G01 X42.6630 Y17.4647 
G01 X42.6413 Y17.4864 
G00 Z2.5400 
G00 X44.2530 Y18.3461 
G01 Z-0.1778 F254.00 
G01 X45.0470 Y18.3461 F508.00 
G01 X45.0470 Y18.3587 
G01 X44.2530 Y18.3587 
G01 X44.2530 Y18.3461 
G00 Z2.5400 
G00 X45.6694 Y17.2539 
G01 Z-0.1778 F254.00 
G01 X45.7853 Y17.1870 F508.00 
G01 X45.8870 Y17.0853 
G01 X47.7310 Y15.2413 
G01 X48.3864 Y15.2413 
G01 X46.3738 Y17.2539 
G01 X45.6694 Y17.2539 
G00 Z2.5400 
G00 X48.6413 Y14.9864 
G01 Z-0.1778 F254.00 
G01 X48.6413 Y14.7461 F508.00 
G01 X48.8940 Y14.7461 
G01 X48.8647 Y14.7630 
G01 X48.7630 Y14.8647 
G01 X48.6413 Y14.9864 
G00 Z2.5400 
G00 X50.3533 Y15.7461 
G01 Z-0.1778 F254.00 
G01 X50.7281 Y15.7461 F508.00 
G01 X50.7389 Y15.7461 
G01 X50.7389 Y15.7675 
G01 X50.7633 Y15.8587 
G01 X50.3463 Y15.8587 
G01 X50.3533 Y15.8327 
G01 X50.3533 Y15.8029 
G01 X50.3533 Y15.7461 
G00 Z2.5400 
G00 X52.7148 Y12.6575 
G01 Z-0.1778 F254.00 
G01 X53.0262 Y12.3461 F508.00 
G01 X53.2587 Y12.3461 
G01 X53.2587 Y12.5480 
G01 X53.2954 Y12.6367 
G01 X53.3127 Y12.6539 
G01 X52.7281 Y12.6539 
G01 X52.7148 Y12.6575 
G00 Z2.5400 
G00 X54.5873 Y12.6539 
G01 Z-0.1778 F254.00 
G01 X54.6046 Y12.6367 F508.00 
G01 X54.6413 Y12.5480 
G01 X54.6413 Y12.2961 
G01 X57.5219 Y12.2961 
G01 X57.6608 Y12.2589 
G01 X57.7853 Y12.1870 
G01 X57.8870 Y12.0853 
G01 X59.7310 Y10.2413 
G01 X60.3539 Y10.2413 
G01 X60.3539 Y10.2738 
G01 X57.9738 Y12.6539 
G01 X54.5873 Y12.6539 
G00 Z2.5400 
G00 X46.2158 Y4.3706 
G01 Z-0.1778 F254.00 
G01 X45.6216 Y4.6167 F508.00 
G01 X44.9784 Y4.6167 
G01 X44.3842 Y4.3706 
G01 X43.9294 Y3.9158 
G01 X43.6833 Y3.3216 
G01 X43.6833 Y2.6784 
G01 X43.9294 Y2.0842 
G01 X44.3842 Y1.6294 
G01 X44.9784 Y1.3833 
G01 X45.6216 Y1.3833 
G01 X46.2158 Y1.6294 
G01 X46.6706 Y2.0842 
G01 X46.9167 Y2.6784 
G01 X46.9167 Y3.3216 
G01 X46.6706 Y3.9158 
G01 X46.2158 Y4.3706 
G00 Z2.5400 
G00 X46.2158 Y33.6294 
G01 Z-0.1778 F254.00 
G01 X46.6706 Y34.0842 F508.00 
G01 X46.9167 Y34.6784 
G01 X46.9167 Y35.3216 
G01 X46.6706 Y35.9158 
G01 X46.2158 Y36.3706 
G01 X45.6216 Y36.6167 
G01 X44.9784 Y36.6167 
G01 X44.3842 Y36.3706 
G01 X43.9294 Y35.9158 
G01 X43.6833 Y35.3216 
G01 X43.6833 Y34.6784 
G01 X43.9294 Y34.0842 
G01 X44.3842 Y33.6294 
G01 X44.9784 Y33.3833 
G01 X45.6216 Y33.3833 
G01 X46.2158 Y33.6294 
G00 Z2.5400 
G00 X17.9158 Y33.6294 
G01 Z-0.1778 F254.00 
G01 X18.3706 Y34.0842 F508.00 
G01 X18.6167 Y34.6784 
G01 X18.6167 Y35.3216 
G01 X18.3706 Y35.9158 
G01 X17.9158 Y36.3706 
G01 X17.3216 Y36.6167 
G01 X16.6784 Y36.6167 
G01 X16.0842 Y36.3706 
G01 X15.6294 Y35.9158 
G01 X15.3833 Y35.3216 
G01 X15.3833 Y34.6784 
G01 X15.6294 Y34.0842 
G01 X16.0842 Y33.6294 
G01 X16.6784 Y33.3833 
G01 X17.3216 Y33.3833 
G01 X17.9158 Y33.6294 
G00 Z2.5400 
G00 X15.0470 Y20.8587 
G01 Z-0.1778 F254.00 
G01 X14.2530 Y20.8587 F508.00 
G01 X14.2530 Y20.8461 
G01 X15.0470 Y20.8461 
G01 X15.0470 Y20.8587 
G00 Z2.5400 
G00 X12.8806 Y19.7961 
G01 Z-0.1778 F254.00 
G01 X12.7647 Y19.8630 F508.00 
G01 X12.6630 Y19.9647 
G01 X12.6413 Y19.9864 
G01 X12.6413 Y19.7961 
G01 X12.8806 Y19.7961 
G00 Z2.5400 
G00 X9.0470 Y23.3461 
G01 Z-0.1778 F254.00 
G01 X9.0470 Y23.3587 F508.00 
G01 X8.2530 Y23.3587 
G01 X8.2530 Y23.3461 
G01 X9.0470 Y23.3461 
G00 Z2.5400 
G00 X2.3522 Y19.3858 
G01 Z-0.1778 F254.00 
G01 X2.2825 Y19.3632 F508.00 
G01 X2.0950 Y19.3335 
G01 X2.0730 Y19.3335 
G01 X2.0742 Y19.3256 
G01 X2.0737 Y19.3208 
G01 X2.0744 Y19.3159 
G01 X2.0687 Y19.2726 
G01 X2.0641 Y19.2292 
G01 X2.0623 Y19.2246 
G01 X2.0617 Y19.2198 
G01 X2.0562 Y19.2065 
G01 X2.0950 Y19.2065 
G01 X2.2825 Y19.1768 
G01 X2.4631 Y19.1181 
G01 X2.6323 Y19.0319 
G01 X2.6369 Y19.0286 
G01 X2.6448 Y19.0579 
G01 X2.6533 Y19.0727 
G01 X2.6102 Y19.1175 
G01 X2.5630 Y19.1647 
G01 X2.5603 Y19.1694 
G01 X2.3522 Y19.3858 
G00 Z2.5400 
G00 X0.2387 Y0.3309 
G01 Z-0.1778 F254.00 
G01 X0.1734 Y0.4438 F508.00 
G01 X0.1397 Y0.5698 
G01 X0.1397 Y25.4040 
G01 X0.1734 Y25.5300 
G01 X0.2119 Y25.5966 
G01 X0.2387 Y25.6429 
G01 X0.3309 Y25.7352 
G01 X0.4438 Y25.8004 
G01 X0.5269 Y25.8226 
G01 X0.5269 Y32.7774 
G01 X0.4438 Y32.7996 
G01 X0.3309 Y32.8648 
G01 X0.2387 Y32.9571 
G01 X0.1734 Y33.0700 
G01 X0.1720 Y33.0754 
G01 X0.1397 Y33.1960 
G01 X0.1397 Y37.4302 
G01 X0.1734 Y37.5562 
G01 X0.2387 Y37.6691 
G01 X0.3309 Y37.7613 
G01 X0.4438 Y37.8265 
G01 X0.5698 Y37.8603 
G01 X61.7302 Y37.8603 
G01 X61.8562 Y37.8265 
G01 X61.9691 Y37.7613 
G01 X62.0613 Y37.6691 
G01 X62.1265 Y37.5562 
G01 X62.1603 Y37.4302 
G01 X62.1603 Y21.0122 
G01 X62.1646 Y20.9797 
G01 X62.1603 Y20.9472 
G01 X62.1603 Y20.9145 
G01 X62.1518 Y20.8829 
G01 X62.1475 Y20.8504 
G01 X62.1350 Y20.8202 
G01 X62.1265 Y20.7885 
G01 X62.1102 Y20.7602 
G01 X62.0976 Y20.7299 
G01 X62.0777 Y20.7040 
G01 X62.0613 Y20.6756 
G01 X62.0382 Y20.6524 
G01 X62.0182 Y20.6265 
G01 X61.9923 Y20.6065 
G01 X61.9691 Y20.5834 
G01 X61.9408 Y20.5670 
G01 X61.9148 Y20.5471 
G01 X61.8845 Y20.5345 
G01 X61.8562 Y20.5182 
G01 X61.8335 Y20.5121 
G01 X61.8335 Y20.4350 
G01 X61.8007 Y20.2277 
G01 X61.7358 Y20.0281 
G01 X61.6405 Y19.8411 
G01 X61.5171 Y19.6713 
G01 X61.3687 Y19.5229 
G01 X61.1989 Y19.3995 
G01 X61.0119 Y19.3042 
G01 X60.9066 Y19.2700 
G01 X61.0119 Y19.2358 
G01 X61.1989 Y19.1405 
G01 X61.3687 Y19.0171 
G01 X61.5171 Y18.8687 
G01 X61.6405 Y18.6989 
G01 X61.7358 Y18.5119 
G01 X61.8007 Y18.3123 
G01 X61.8335 Y18.1049 
G01 X61.8335 Y17.8950 
G01 X61.8007 Y17.6877 
G01 X61.7358 Y17.4881 
G01 X61.6405 Y17.3011 
G01 X61.5171 Y17.1313 
G01 X61.3687 Y16.9829 
G01 X61.1989 Y16.8595 
G01 X61.0119 Y16.7642 
G01 X60.9066 Y16.7300 
G01 X61.0119 Y16.6958 
G01 X61.1989 Y16.6005 
G01 X61.3687 Y16.4771 
G01 X61.5171 Y16.3287 
G01 X61.6405 Y16.1589 
G01 X61.7358 Y15.9719 
G01 X61.8007 Y15.7723 
G01 X61.8335 Y15.5649 
G01 X61.8335 Y15.4879 
G01 X61.8562 Y15.4818 
G01 X61.8845 Y15.4654 
G01 X61.9148 Y15.4529 
G01 X61.9408 Y15.4330 
G01 X61.9691 Y15.4166 
G01 X61.9923 Y15.3935 
G01 X62.0182 Y15.3735 
G01 X62.0382 Y15.3476 
G01 X62.0613 Y15.3244 
G01 X62.0777 Y15.2960 
G01 X62.0976 Y15.2701 
G01 X62.1102 Y15.2398 
G01 X62.1265 Y15.2115 
G01 X62.1350 Y15.1798 
G01 X62.1475 Y15.1496 
G01 X62.1518 Y15.1171 
G01 X62.1603 Y15.0855 
G01 X62.1603 Y15.0527 
G01 X62.1646 Y15.0203 
G01 X62.1603 Y14.9878 
G01 X62.1603 Y0.5698 
G01 X62.1265 Y0.4438 
G01 X62.0613 Y0.3309 
G01 X61.9691 Y0.2387 
G01 X61.8562 Y0.1734 
G01 X61.7302 Y0.1397 
G01 X0.7002 Y0.1397 
G01 X0.5698 Y0.1397 
G01 X0.4438 Y0.1734 
G01 X0.3309 Y0.2387 
G01 X0.2387 Y0.3309 
G00 Z2.5400 
G00 X16.1562 Y1.7371 
G01 Z-0.1778 F254.00 
G01 X16.7037 Y1.5103 F508.00 
G01 X17.2963 Y1.5103 
G01 X17.8438 Y1.7371 
G01 X18.2629 Y2.1562 
G01 X18.4897 Y2.7037 
G01 X18.4897 Y3.2963 
G01 X18.2629 Y3.8438 
G01 X17.8438 Y4.2629 
G01 X17.2963 Y4.4897 
G01 X16.7037 Y4.4897 
G01 X16.1562 Y4.2629 
G01 X15.7371 Y3.8438 
G01 X15.5103 Y3.2963 
G01 X15.5103 Y2.7037 
G01 X15.7371 Y2.1562 
G01 X16.1562 Y1.7371 
G00 Z2.5400 
G00 X17.7836 Y17.8683 
G01 Z-0.1778 F254.00 
G01 X18.0798 Y17.8683 F508.00 
G01 X16.3212 Y19.6269 
G01 X16.0250 Y19.6269 
G01 X17.7836 Y17.8683 
G00 Z2.5400 
G00 X22.0250 Y17.1269 
G01 Z-0.1778 F254.00 
G01 X23.7836 Y15.3683 F508.00 
G01 X24.0798 Y15.3683 
G01 X22.3212 Y17.1269 
G01 X22.0250 Y17.1269 
G00 Z2.5400 
G00 X28.0250 Y14.6269 
G01 Z-0.1778 F254.00 
G01 X29.7836 Y12.8683 F508.00 
G01 X30.0798 Y12.8683 
G01 X28.3212 Y14.6269 
G01 X28.0250 Y14.6269 
G00 Z2.5400 
G00 X34.0250 Y12.1269 
G01 Z-0.1778 F254.00 
G01 X35.7836 Y10.3683 F508.00 
G01 X36.0798 Y10.3683 
G01 X34.3212 Y12.1269 
G01 X34.0250 Y12.1269 
G00 Z2.5400 
G00 X34.0250 Y22.1269 
G01 Z-0.1778 F254.00 
G01 X35.7836 Y20.3683 F508.00 
G01 X36.0798 Y20.3683 
G01 X34.3212 Y22.1269 
G01 X34.0250 Y22.1269 
G00 Z2.5400 
G00 X40.0250 Y19.6269 
G01 Z-0.1778 F254.00 
G01 X41.7836 Y17.8683 F508.00 
G01 X42.0798 Y17.8683 
G01 X40.3212 Y19.6269 
G01 X40.0250 Y19.6269 
G00 Z2.5400 
G00 X46.0250 Y17.1269 
G01 Z-0.1778 F254.00 
G01 X47.7836 Y15.3683 F508.00 
G01 X48.0798 Y15.3683 
G01 X46.3212 Y17.1269 
G01 X46.0250 Y17.1269 
G00 Z2.5400 
G00 X53.0250 Y12.5269 
G01 Z-0.1778 F254.00 
G01 X53.0788 Y12.4731 F508.00 
G01 X53.1317 Y12.4731 
G01 X53.1317 Y12.5269 
G01 X53.0250 Y12.5269 
G00 Z2.5400 
G00 X54.7683 Y12.5269 
G01 Z-0.1778 F254.00 
G01 X54.7683 Y12.4231 F508.00 
G01 X57.5163 Y12.4231 
G01 X57.6463 Y12.3972 
G01 X57.7688 Y12.3465 
G01 X57.8791 Y12.2728 
G01 X57.9728 Y12.1791 
G01 X59.7836 Y10.3683 
G01 X60.0798 Y10.3683 
G01 X57.9212 Y12.5269 
G01 X54.7683 Y12.5269 
G00 Z2.5400 
G00 X46.1438 Y4.2629 
G01 Z-0.1778 F254.00 
G01 X45.5963 Y4.4897 F508.00 
G01 X45.0037 Y4.4897 
G01 X44.4562 Y4.2629 
G01 X44.0371 Y3.8438 
G01 X43.8103 Y3.2963 
G01 X43.8103 Y2.7037 
G01 X44.0371 Y2.1562 
G01 X44.4562 Y1.7371 
G01 X45.0037 Y1.5103 
G01 X45.5963 Y1.5103 
G01 X46.1438 Y1.7371 
G01 X46.5629 Y2.1562 
G01 X46.7897 Y2.7037 
G01 X46.7897 Y3.2963 
G01 X46.5629 Y3.8438 
G01 X46.1438 Y4.2629 
G00 Z2.5400 
G00 X46.1438 Y33.7371 
G01 Z-0.1778 F254.00 
G01 X46.5629 Y34.1562 F508.00 
G01 X46.7897 Y34.7037 
G01 X46.7897 Y35.2963 
G01 X46.5629 Y35.8438 
G01 X46.1438 Y36.2629 
G01 X45.5963 Y36.4897 
G01 X45.0037 Y36.4897 
G01 X44.4562 Y36.2629 
G01 X44.0371 Y35.8438 
G01 X43.8103 Y35.2963 
G01 X43.8103 Y34.7037 
G01 X44.0371 Y34.1562 
G01 X44.4562 Y33.7371 
G01 X45.0037 Y33.5103 
G01 X45.5963 Y33.5103 
G01 X46.1438 Y33.7371 
G00 Z2.5400 
G00 X18.2629 Y34.1562 
G01 Z-0.1778 F254.00 
G01 X18.4897 Y34.7037 F508.00 
G01 X18.4897 Y35.2963 
G01 X18.2629 Y35.8438 
G01 X17.8438 Y36.2629 
G01 X17.2963 Y36.4897 
G01 X16.7037 Y36.4897 
G01 X16.1562 Y36.2629 
G01 X15.7371 Y35.8438 
G01 X15.5103 Y35.2963 
G01 X15.5103 Y34.7037 
G01 X15.7371 Y34.1562 
G01 X16.1562 Y33.7371 
G01 X16.7037 Y33.5103 
G01 X17.2963 Y33.5103 
G01 X17.8438 Y33.7371 
G01 X18.2629 Y34.1562 
G00 Z2.5400 
G00 X0.1516 Y0.2383 
G01 Z-0.1778 F254.00 
G01 X0.0835 Y0.3402 F508.00 
G01 X0.0366 Y0.4535 
G01 X0.0127 Y0.5737 
G01 X0.0127 Y25.4001 
G01 X0.0366 Y25.5203 
G01 X0.0835 Y25.6336 
G01 X0.1516 Y25.7355 
G01 X0.2383 Y25.8222 
G01 X0.3402 Y25.8903 
G01 X0.3999 Y25.9150 
G01 X0.3999 Y32.6850 
G01 X0.3402 Y32.7097 
G01 X0.2986 Y32.7375 
G01 X0.2383 Y32.7778 
G01 X0.1530 Y32.8631 
G01 X0.0835 Y32.9664 
G01 X0.0366 Y33.0797 
G01 X0.0127 Y33.1999 
G01 X0.0127 Y37.4263 
G01 X0.0366 Y37.5465 
G01 X0.0835 Y37.6598 
G01 X0.1516 Y37.7617 
G01 X0.2383 Y37.8484 
G01 X0.3402 Y37.9165 
G01 X0.4535 Y37.9634 
G01 X0.5737 Y37.9873 
G01 X61.7263 Y37.9873 
G01 X61.8465 Y37.9634 
G01 X61.9598 Y37.9165 
G01 X62.0617 Y37.8484 
G01 X62.1484 Y37.7617 
G01 X62.2165 Y37.6598 
G01 X62.2634 Y37.5465 
G01 X62.2873 Y37.4263 
G01 X62.2873 Y20.9184 
G01 X62.2634 Y20.7982 
G01 X62.2293 Y20.7158 
G01 X62.2165 Y20.6850 
G01 X62.1484 Y20.5830 
G01 X62.0617 Y20.4963 
G01 X61.9795 Y20.4414 
G01 X61.9605 Y20.4287 
G01 X61.9605 Y20.4251 
G01 X61.9245 Y20.1980 
G01 X61.8535 Y19.9794 
G01 X61.7491 Y19.7745 
G01 X61.6140 Y19.5885 
G01 X61.4515 Y19.4260 
G01 X61.2655 Y19.2909 
G01 X61.2245 Y19.2700 
G01 X61.2655 Y19.2491 
G01 X61.4515 Y19.1140 
G01 X61.6140 Y18.9515 
G01 X61.7491 Y18.7655 
G01 X61.8535 Y18.5606 
G01 X61.9245 Y18.3420 
G01 X61.9605 Y18.1149 
G01 X61.9605 Y17.8851 
G01 X61.9245 Y17.6580 
G01 X61.8535 Y17.4394 
G01 X61.7491 Y17.2345 
G01 X61.6140 Y17.0485 
G01 X61.4515 Y16.8860 
G01 X61.2655 Y16.7509 
G01 X61.2245 Y16.7300 
G01 X61.2655 Y16.7091 
G01 X61.4515 Y16.5740 
G01 X61.6140 Y16.4114 
G01 X61.7491 Y16.2255 
G01 X61.8535 Y16.0206 
G01 X61.9245 Y15.8020 
G01 X61.9605 Y15.5749 
G01 X61.9605 Y15.5713 
G01 X61.9811 Y15.5575 
G01 X62.0617 Y15.5037 
G01 X62.1484 Y15.4170 
G01 X62.2165 Y15.3150 
G01 X62.2312 Y15.2796 
G01 X62.2634 Y15.2018 
G01 X62.2873 Y15.0816 
G01 X62.2873 Y0.5737 
G01 X62.2634 Y0.4535 
G01 X62.2165 Y0.3402 
G01 X62.1484 Y0.2383 
G01 X62.0617 Y0.1516 
G01 X61.9598 Y0.0835 
G01 X61.8465 Y0.0366 
G01 X61.7263 Y0.0127 
G01 X0.6963 Y0.0127 
G01 X0.5737 Y0.0127 
G01 X0.4535 Y0.0366 
G01 X0.3402 Y0.0835 
G01 X0.2383 Y0.1516 
G01 X0.1516 Y0.2383 
G00 Z2.5400 
G00 X16.2281 Y1.8448 
G01 Z-0.1778 F254.00 
G01 X16.7289 Y1.6373 F508.00 
G01 X17.2711 Y1.6373 
G01 X17.7719 Y1.8448 
G01 X18.1552 Y2.2281 
G01 X18.3627 Y2.7289 
G01 X18.3627 Y3.2711 
G01 X18.1552 Y3.7719 
G01 X17.7719 Y4.1552 
G01 X17.2711 Y4.3627 
G01 X16.7289 Y4.3627 
G01 X16.2281 Y4.1552 
G01 X15.8448 Y3.7719 
G01 X15.6373 Y3.2711 
G01 X15.6373 Y2.7289 
G01 X15.8448 Y2.2281 
G01 X16.2281 Y1.8448 
G00 Z2.5400 
G00 X44.5281 Y1.8448 
G01 Z-0.1778 F254.00 
G01 X45.0289 Y1.6373 F508.00 
G01 X45.5711 Y1.6373 
G01 X46.0719 Y1.8448 
G01 X46.4552 Y2.2281 
G01 X46.6627 Y2.7289 
G01 X46.6627 Y3.2711 
G01 X46.4552 Y3.7719 
G01 X46.0719 Y4.1552 
G01 X45.5711 Y4.3627 
G01 X45.0289 Y4.3627 
G01 X44.5281 Y4.1552 
G01 X44.1448 Y3.7719 
G01 X43.9373 Y3.2711 
G01 X43.9373 Y2.7289 
G01 X44.1448 Y2.2281 
G01 X44.5281 Y1.8448 
G00 Z2.5400 
G00 X44.5281 Y33.8448 
G01 Z-0.1778 F254.00 
G01 X45.0289 Y33.6373 F508.00 
G01 X45.5711 Y33.6373 
G01 X46.0719 Y33.8448 
G01 X46.4552 Y34.2281 
G01 X46.6627 Y34.7289 
G01 X46.6627 Y35.2711 
G01 X46.4552 Y35.7719 
G01 X46.0719 Y36.1552 
G01 X45.5711 Y36.3627 
G01 X45.0289 Y36.3627 
G01 X44.5281 Y36.1552 
G01 X44.1448 Y35.7719 
G01 X43.9373 Y35.2711 
G01 X43.9373 Y34.7289 
G01 X44.1448 Y34.2281 
G01 X44.5281 Y33.8448 
G00 Z2.5400 
G00 X17.7719 Y33.8448 
G01 Z-0.1778 F254.00 
G01 X18.1552 Y34.2281 F508.00 
G01 X18.3627 Y34.7289 
G01 X18.3627 Y35.2711 
G01 X18.1552 Y35.7719 
G01 X17.7719 Y36.1552 
G01 X17.2711 Y36.3627 
G01 X16.7289 Y36.3627 
G01 X16.2281 Y36.1552 
G01 X15.8448 Y35.7719 
G01 X15.6373 Y35.2711 
G01 X15.6373 Y34.7289 
G01 X15.8448 Y34.2281 
G01 X16.2281 Y33.8448 
G01 X16.7289 Y33.6373 
G01 X17.2711 Y33.6373 
G01 X17.7719 Y33.8448 
G00 Z2.5400 
G00 X0.0530 Y0.1573 
G01 Z-0.1778 F254.00 
G01 X-0.0290 Y0.2801 F508.00 
G01 X-0.0855 Y0.4164 
G01 X-0.1143 Y0.5612 
G01 X-0.1143 Y25.4126 
G01 X-0.1082 Y25.4430 
G01 X-0.0855 Y25.5574 
G01 X-0.0290 Y25.6937 
G01 X-0.0029 Y25.7328 
G01 X0.0530 Y25.8165 
G01 X0.1573 Y25.9208 
G01 X0.1997 Y25.9491 
G01 X0.2729 Y25.9980 
G01 X0.2729 Y32.6019 
G01 X0.1573 Y32.6792 
G01 X0.0530 Y32.7835 
G01 X-0.0290 Y32.9062 
G01 X-0.0855 Y33.0426 
G01 X-0.1143 Y33.1874 
G01 X-0.1143 Y37.4388 
G01 X-0.0855 Y37.5836 
G01 X-0.0290 Y37.7199 
G01 X0.0530 Y37.8426 
G01 X0.1573 Y37.9470 
G01 X0.2801 Y38.0290 
G01 X0.4164 Y38.0855 
G01 X0.5612 Y38.1143 
G01 X61.7388 Y38.1143 
G01 X61.8836 Y38.0855 
G01 X62.0199 Y38.0290 
G01 X62.1427 Y37.9470 
G01 X62.2470 Y37.8426 
G01 X62.3290 Y37.7199 
G01 X62.3855 Y37.5836 
G01 X62.4143 Y37.4388 
G01 X62.4143 Y20.9059 
G01 X62.4025 Y20.8467 
G01 X62.3855 Y20.7612 
G01 X62.3290 Y20.6248 
G01 X62.2470 Y20.5021 
G01 X62.1426 Y20.3977 
G01 X62.0779 Y20.3544 
G01 X62.0484 Y20.1683 
G01 X61.9712 Y19.9306 
G01 X61.8578 Y19.7080 
G01 X61.7109 Y19.5058 
G01 X61.5342 Y19.3291 
G01 X61.4528 Y19.2700 
G01 X61.5342 Y19.2109 
G01 X61.7109 Y19.0342 
G01 X61.8578 Y18.8320 
G01 X61.9712 Y18.6094 
G01 X62.0484 Y18.3717 
G01 X62.0875 Y18.1249 
G01 X62.0875 Y17.8751 
G01 X62.0484 Y17.6283 
G01 X61.9712 Y17.3906 
G01 X61.8578 Y17.1680 
G01 X61.7109 Y16.9658 
G01 X61.5342 Y16.7891 
G01 X61.4528 Y16.7300 
G01 X61.5342 Y16.6709 
G01 X61.7109 Y16.4942 
G01 X61.8578 Y16.2920 
G01 X61.9712 Y16.0694 
G01 X62.0484 Y15.8317 
G01 X62.0779 Y15.6456 
G01 X62.1426 Y15.6023 
G01 X62.2470 Y15.4979 
G01 X62.3290 Y15.3752 
G01 X62.3855 Y15.2388 
G01 X62.4032 Y15.1500 
G01 X62.4143 Y15.0941 
G01 X62.4143 Y0.5612 
G01 X62.3855 Y0.4164 
G01 X62.3290 Y0.2801 
G01 X62.2470 Y0.1573 
G01 X62.1427 Y0.0530 
G01 X62.0199 Y-0.0290 
G01 X61.8836 Y-0.0855 
G01 X61.7388 Y-0.1143 
G01 X0.7088 Y-0.1143 
G01 X0.5612 Y-0.1143 
G01 X0.4164 Y-0.0855 
G01 X0.2801 Y-0.0290 
G01 X0.1573 Y0.0530 
G01 X0.0530 Y0.1573 
G00 Z2.5400 
G00 X16.3000 Y1.9524 
G01 Z-0.1778 F254.00 
G01 X16.7542 Y1.7643 F508.00 
G01 X17.2458 Y1.7643 
G01 X17.7000 Y1.9524 
G01 X18.0476 Y2.3000 
G01 X18.2357 Y2.7542 
G01 X18.2357 Y3.2458 
G01 X18.0476 Y3.7000 
G01 X17.7000 Y4.0476 
G01 X17.2458 Y4.2357 
G01 X16.7542 Y4.2357 
G01 X16.3000 Y4.0476 
G01 X15.9524 Y3.7000 
G01 X15.7643 Y3.2458 
G01 X15.7643 Y2.7542 
G01 X15.9524 Y2.3000 
G01 X16.3000 Y1.9524 
G00 Z2.5400 
G00 X44.6000 Y1.9524 
G01 Z-0.1778 F254.00 
G01 X45.0542 Y1.7643 F508.00 
G01 X45.5458 Y1.7643 
G01 X46.0000 Y1.9524 
G01 X46.3476 Y2.3000 
G01 X46.5357 Y2.7542 
G01 X46.5357 Y3.2458 
G01 X46.3476 Y3.7000 
G01 X46.0000 Y4.0476 
G01 X45.5458 Y4.2357 
G01 X45.0542 Y4.2357 
G01 X44.6000 Y4.0476 
G01 X44.2524 Y3.7000 
G01 X44.0643 Y3.2458 
G01 X44.0643 Y2.7542 
G01 X44.2524 Y2.3000 
G01 X44.6000 Y1.9524 
G00 Z2.5400 
G00 X44.6000 Y33.9524 
G01 Z-0.1778 F254.00 
G01 X45.0542 Y33.7643 F508.00 
G01 X45.5458 Y33.7643 
G01 X46.0000 Y33.9524 
G01 X46.3476 Y34.3000 
G01 X46.5357 Y34.7542 
G01 X46.5357 Y35.2458 
G01 X46.3476 Y35.7000 
G01 X46.0000 Y36.0476 
G01 X45.5458 Y36.2357 
G01 X45.0542 Y36.2357 
G01 X44.6000 Y36.0476 
G01 X44.2524 Y35.7000 
G01 X44.0643 Y35.2458 
G01 X44.0643 Y34.7542 
G01 X44.2524 Y34.3000 
G01 X44.6000 Y33.9524 
G00 Z2.5400 
G00 X17.7000 Y33.9524 
G01 Z-0.1778 F254.00 
G01 X18.0476 Y34.3000 F508.00 
G01 X18.2357 Y34.7542 
G01 X18.2357 Y35.2458 
G01 X18.0476 Y35.7000 
G01 X17.7000 Y36.0476 
G01 X17.2458 Y36.2357 
G01 X16.7542 Y36.2357 
G01 X16.3000 Y36.0476 
G01 X15.9524 Y35.7000 
G01 X15.7643 Y35.2458 
G01 X15.7643 Y34.7542 
G01 X15.9524 Y34.3000 
G01 X16.3000 Y33.9524 
G01 X16.7542 Y33.7643 
G01 X17.2458 Y33.7643 
G01 X17.7000 Y33.9524 
G00 Z2.5400 
G00 Z2.540000
G00 X17.0000 Y35.0000 
G01 Z-0.2794 F508.00 
G01 Z2.540000
(R2.5400  P1.000000)
G00 X45.3000 Y35.0000 
G01 Z-0.812800
G01 Z2.540000
G00 X45.3000 Y3.0000 
G01 Z-0.812800
G01 Z2.540000
G00 X17.0000 Y3.0000 
G01 Z-0.812800
G01 Z2.540000
G00 X1.5000 Y36.5000 
G01 Z-0.812800
G01 Z2.540000
G00 X61.0000 Y36.5000 
G01 Z-0.812800
G01 Z2.540000
G00 X61.0000 Y1.5000 
G01 Z-0.812800
G01 Z2.540000
G00 X1.5000 Y1.5000 
G01 Z-0.812800
G01 Z2.540000
G00 X1.5000 Y23.0000 
G01 Z-0.812800
G01 Z2.540000
G00 X1.5000 Y13.0000 
G01 Z-0.812800
G01 Z2.540000
G00 X61.0000 Y23.0000 
G01 Z-0.812800
G01 Z2.540000
G00 X61.0000 Y13.0000 
G01 Z-0.812800
G01 Z2.540000
G00 X20.5000 Y36.5000 
G01 Z-0.812800
G01 Z2.540000
G00 X42.0000 Y36.5000 
G01 Z-0.812800
G01 Z2.540000
G00 X14.0000 Y1.5000 
G01 Z-0.812800
G01 Z2.540000
G00 X48.5000 Y1.5000 
G01 Z-0.812800
G01 Z2.540000
G00 X3.2220 Y5.0000 
G01 Z-0.812800
G01 Z2.540000
G00 X6.7780 Y5.0000 
G01 Z-0.812800
G01 Z2.540000
G00 X60.5000 Y20.5400 
G01 Z-0.812800
G01 Z2.540000
G00 X60.5000 Y18.0000 
G01 Z-0.812800
G01 Z2.540000
G00 X60.5000 Y15.4600 
G01 Z-0.812800
G01 Z2.540000
G00 X2.0000 Y15.4600 
G01 Z-0.812800
G01 Z2.540000
G00 X2.0000 Y18.0000 
G01 Z-0.812800
G01 Z2.540000
G00 X2.0000 Y20.5400 
G01 Z-0.812800
G01 Z2.540000
G00 Z12.7000 
M05
M02
