(.../EAGLE-7.7.0/ulp/gcode/pcb-gcode.ulp)
(Copyright 2005 - 2012 by John Johnson)
(See readme.txt for licensing terms.)
(This file generated from the board:)
(.../Lixie-hardware/PCB/lixie_digit.brd)
(Current profile is .../ulp/gcode/profiles/generic.pp  )
(This file generated 20.01.2017 11:14)
(Settings from pcb-machine.h)
(spindle on time = 3.0000)
(spindle speed = 20000.0000)
(tool change at 0.0000 0.0000 25.4000 )
(feed rate xy = F0.00  )
(feed rate z  = F508.00 )
(Z Axis Settings)
(  High     Up        Down     Drill)
(12.7000 	2.5400 	-0.1778 	-0.8128 )
(Settings from pcb-defaults.h)
(isolate min = 0.0254)
(isolate max = 0.5080)
(isolate step = 0.1270)
(Generated top outlines, top drill, bottom outlines, bottom drill, )
(Unit of measure: mm)
( Tool|       Size       |  Min Sub |  Max Sub |   Count )
( T01  0.600mm 0.0236in 0.0000in 0.0000in )
( T02  0.813mm 0.0320in 0.0000in 0.0000in )
( T03  1.016mm 0.0400in 0.0000in 0.0000in )
( T04  2.700mm 0.1063in 0.0000in 0.0000in )
(Metric Mode)
G21
(Absolute Coordinates)
G90
S20000
G00 Z12.7000 
G00 X0.0000 Y0.0000 
M03
G04 P3.000000
M05
G00 Z25.4000 
M06 T01  ; 0.6000 
G01 Z0.0000 F508.00 
M06 
G00 Z2.5400 
M03
G04 P3.000000
G00 Z2.540000
G00 X-1.5000 Y1.5000 
G01 Z-0.8128 F508.00 
G01 Z2.540000
(R2.5400  P1.000000)
G00 X-1.5000 Y13.0000 
G01 Z-0.812800
G01 Z2.540000
G00 X-1.5000 Y23.0000 
G01 Z-0.812800
G01 Z2.540000
G00 X-1.5000 Y36.5000 
G01 Z-0.812800
G01 Z2.540000
G00 X-20.5000 Y36.5000 
G01 Z-0.812800
G01 Z2.540000
G00 X-42.0000 Y36.5000 
G01 Z-0.812800
G01 Z2.540000
G00 X-61.0000 Y36.5000 
G01 Z-0.812800
G01 Z2.540000
G00 X-61.0000 Y23.0000 
G01 Z-0.812800
G01 Z2.540000
G00 X-61.0000 Y13.0000 
G01 Z-0.812800
G01 Z2.540000
G00 X-61.0000 Y1.5000 
G01 Z-0.812800
G01 Z2.540000
G00 X-48.5000 Y1.5000 
G01 Z-0.812800
G01 Z2.540000
G00 X-14.0000 Y1.5000 
G01 Z-0.812800
G01 Z2.540000
M05
G00 Z25.4000 
G00 X0.0000 Y0.0000 
M06 T02  ; 0.8128 
G01 Z0.0000 F508.00 
M06 
G00 Z2.5400 
M03
G04 P3.000000
G00 Z2.540000
G00 X-3.2220 Y5.0000 
G01 Z-0.8128 F508.00 
G01 Z2.540000
(R2.5400  P1.000000)
G00 X-6.7780 Y5.0000 
G01 Z-0.812800
G01 Z2.540000
M05
G00 Z25.4000 
G00 X0.0000 Y0.0000 
M06 T03  ; 1.0160 
G01 Z0.0000 F508.00 
M06 
G00 Z2.5400 
M03
G04 P3.000000
G00 Z2.540000
G00 X-2.0000 Y15.4600 
G01 Z-0.8128 F508.00 
G01 Z2.540000
(R2.5400  P1.000000)
G00 X-2.0000 Y18.0000 
G01 Z-0.812800
G01 Z2.540000
G00 X-2.0000 Y20.5400 
G01 Z-0.812800
G01 Z2.540000
G00 X-60.5000 Y20.5400 
G01 Z-0.812800
G01 Z2.540000
G00 X-60.5000 Y18.0000 
G01 Z-0.812800
G01 Z2.540000
G00 X-60.5000 Y15.4600 
G01 Z-0.812800
G01 Z2.540000
M05
G00 Z25.4000 
G00 X0.0000 Y0.0000 
M06 T04  ; 2.7000 
G01 Z0.0000 F508.00 
M06 
G00 Z2.5400 
M03
G04 P3.000000
G00 Z2.540000
G00 X-17.0000 Y3.0000 
G01 Z-0.8128 F508.00 
G01 Z2.540000
(R2.5400  P1.000000)
G00 X-45.3000 Y3.0000 
G01 Z-0.812800
G01 Z2.540000
G00 X-45.3000 Y35.0000 
G01 Z-0.812800
G01 Z2.540000
G00 X-17.0000 Y35.0000 
G01 Z-0.812800
G01 Z2.540000
T01 
G00 Z12.7000 
M05
M02
